(G-CODE GENERATED BY FLATCAM v8.994 - www.flatcam.org - Version Date: 2020/11/7)

(Name: Drill_PTH_Through.DRL_edit_cnc)
(Type: G-code from Geometry)
(Units: MM)

(Created on Tuesday, 18 April 2023 at 19:22)


/TOOLS DIAMETER = ДИАМЕТР ИНСТРУМЕНТА: 
/Tool: 1 -> Dia: 0.8

/FEEDRATE Z = ПОДАЧА по Z: 
/Tool = Инструмент: 1 -> Feedrate = подача: 1000.0

/FEEDRATE RAPIDS = БЫСТРЫЕ ПОДАЧИ: 
/Tool = Инструмент: 1 -> Feedrate Rapids = быстрая подача: 1500

/Z_CUT = ПРОХОДЫ по Z: 
/Tool = Инструмент: 1 -> Z_Cut: -1.6

/Tools Offset: 
/Tool: 1 -> Offset Z: 0.0

/Z_MOVE: 
/Tool: 1 -> Z_Move: 2

/Z Toolchange: 15 mm
/X,Y Toolchange: 0.0000, 0.0000 mm
/Z Start: None mm
/Z End: 0.5 mm
/X,Y End: None mm
(Steps per circle: 64)
/Steps per circle: 64
/Preprocessor Excellon: Charly4U

/X range:    1.3780 ...   43.4530  mm
/Y range:  -73.5520 ...   -6.0770  mm

/Скорость шпинделя: 20000 RPM
G71 / измерения в мм
G90 / программирование в абсолютных координатах

F1000
/Tool switching while working is not supported! = Смена инструмента в процессе работы не поддерживается!
F1000
M3 S20000
G0 X33.2740 Y-73.1520
G1 Z-1.6000 F1000
G1 Z0
G0 Z2.0000
G0 X33.2740 Y-70.6120
G1 Z-1.6000 F1000
G1 Z0
G0 Z2.0000
G0 X33.2740 Y-68.0720
G1 Z-1.6000 F1000
G1 Z0
G0 Z2.0000
G0 X33.2740 Y-65.5320
G1 Z-1.6000 F1000
G1 Z0
G0 Z2.0000
G0 X33.2740 Y-62.9920
G1 Z-1.6000 F1000
G1 Z0
G0 Z2.0000
G0 X37.1640 Y-65.0580
G1 Z-1.6000 F1000
G1 Z0
G0 Z2.0000
G0 X41.1480 Y-65.6590
G1 Z-1.6000 F1000
G1 Z0
G0 Z2.0000
G0 X41.1480 Y-63.1190
G1 Z-1.6000 F1000
G1 Z0
G0 Z2.0000
G0 X41.0860 Y-58.5930
G1 Z-1.6000 F1000
G1 Z0
G0 Z2.0000
G0 X35.2260 Y-55.0840
G1 Z-1.6000 F1000
G1 Z0
G0 Z2.0000
G0 X30.2290 Y-55.5220
G1 Z-1.6000 F1000
G1 Z0
G0 Z2.0000
G0 X30.9880 Y-47.6250
G1 Z-1.6000 F1000
G1 Z0
G0 Z2.0000
G0 X35.1140 Y-50.3730
G1 Z-1.6000 F1000
G1 Z0
G0 Z2.0000
G0 X43.0530 Y-37.5920
G1 Z-1.6000 F1000
G1 Z0
G0 Z2.0000
G0 X43.0530 Y-27.4320
G1 Z-1.6000 F1000
G1 Z0
G0 Z2.0000
G0 X38.8620 Y-21.8440
G1 Z-1.6000 F1000
G1 Z0
G0 Z2.0000
G0 X32.0610 Y-16.6340
G1 Z-1.6000 F1000
G1 Z0
G0 Z2.0000
G0 X26.5430 Y-9.2710
G1 Z-1.6000 F1000
G1 Z0
G0 Z2.0000
G0 X28.7020 Y-21.8440
G1 Z-1.6000 F1000
G1 Z0
G0 Z2.0000
G0 X32.0470 Y-35.3890
G1 Z-1.6000 F1000
G1 Z0
G0 Z2.0000
G0 X28.4050 Y-44.8750
G1 Z-1.6000 F1000
G1 Z0
G0 Z2.0000
G0 X23.3680 Y-46.4820
G1 Z-1.6000 F1000
G1 Z0
G0 Z2.0000
G0 X23.3680 Y-43.9420
G1 Z-1.6000 F1000
G1 Z0
G0 Z2.0000
G0 X20.3200 Y-36.1950
G1 Z-1.6000 F1000
G1 Z0
G0 Z2.0000
G0 X17.7800 Y-32.5120
G1 Z-1.6000 F1000
G1 Z0
G0 Z2.0000
G0 X14.4330 Y-25.6080
G1 Z-1.6000 F1000
G1 Z0
G0 Z2.0000
G0 X20.3200 Y-24.7650
G1 Z-1.6000 F1000
G1 Z0
G0 Z2.0000
G0 X20.3200 Y-22.2250
G1 Z-1.6000 F1000
G1 Z0
G0 Z2.0000
G0 X22.2950 Y-19.4340
G1 Z-1.6000 F1000
G1 Z0
G0 Z2.0000
G0 X17.0630 Y-15.7940
G1 Z-1.6000 F1000
G1 Z0
G0 Z2.0000
G0 X16.3830 Y-9.2710
G1 Z-1.6000 F1000
G1 Z0
G0 Z2.0000
G0 X11.9380 Y-6.4770
G1 Z-1.6000 F1000
G1 Z0
G0 Z2.0000
G0 X1.7780 Y-6.4770
G1 Z-1.6000 F1000
G1 Z0
G0 Z2.0000
G0 X5.4890 Y-13.9700
G1 Z-1.6000 F1000
G1 Z0
G0 Z2.0000
G0 X8.9890 Y-13.9700
G1 Z-1.6000 F1000
G1 Z0
G0 Z2.0000
G0 X3.5840 Y-24.0030
G1 Z-1.6000 F1000
G1 Z0
G0 Z2.0000
G0 X7.0840 Y-24.0030
G1 Z-1.6000 F1000
G1 Z0
G0 Z2.0000
G0 X7.6200 Y-32.5120
G1 Z-1.6000 F1000
G1 Z0
G0 Z2.0000
G0 X2.1590 Y-39.6240
G1 Z-1.6000 F1000
G1 Z0
G0 Z2.0000
G0 X12.3190 Y-39.6240
G1 Z-1.6000 F1000
G1 Z0
G0 Z2.0000
G0 X9.0170 Y-48.6410
G1 Z-1.6000 F1000
G1 Z0
G0 Z2.0000
G0 X19.1770 Y-48.6410
G1 Z-1.6000 F1000
G1 Z0
G0 Z2.0000
G0 X22.7330 Y-51.8160
G1 Z-1.6000 F1000
G1 Z0
G0 Z2.0000
G0 X22.7330 Y-54.3560
G1 Z-1.6000 F1000
G1 Z0
G0 Z2.0000
G0 X22.0980 Y-62.1030
G1 Z-1.6000 F1000
G1 Z0
G0 Z2.0000
G0 X19.5580 Y-62.1030
G1 Z-1.6000 F1000
G1 Z0
G0 Z2.0000
G0 X17.6530 Y-67.4370
G1 Z-1.6000 F1000
G1 Z0
G0 Z2.0000
G0 X5.5880 Y-68.4810
G1 Z-1.6000 F1000
G1 Z0
G0 Z2.0000
G0 X5.5880 Y-71.9810
G1 Z-1.6000 F1000
G1 Z0
G0 Z2.0000
G0 X12.5730 Y-69.9770
G1 Z-1.6000 F1000
G1 Z0
G0 Z2.0000
G0 X17.6530 Y-72.5170
G1 Z-1.6000 F1000
G1 Z0
G0 Z2.0000
G0 X23.1140 Y-70.3580
G1 Z-1.6000 F1000
G1 Z0
G0 Z2.0000
G0 X26.9210 Y-65.1280
G1 Z-1.6000 F1000
G1 Z0
G0 Z2.0000
G0 X28.1940 Y-67.8180
G1 Z-1.6000 F1000
G1 Z0
G0 Z2.0000
G0 X28.1940 Y-72.8980
G1 Z-1.6000 F1000
G1 Z0
G0 Z2.0000
M5 / выключение шпинделя
G0 Z0.50 X0 Y0


