(G-CODE GENERATED BY FLATCAM v8.994 - www.flatcam.org - Version Date: 2020/11/7)

(Name: Gerber_BottomLayer.GBL_iso_combined_cnc)
(Type: G-code from Geometry)
(Units: MM)

(Created on Tuesday, 18 April 2023 at 19:26)

/TOOL DIAMETER = ДИАМЕТР ИНСТРУМЕНТА: 0.8 mm
/Feedrate_XY = подача XY: 1000.0 mm/min
/Feedrate_Z = подача Z: 1000.0 mm/min
/Feedrate rapids = быстрая подача1500.0 mm/min

/Z_Cut = проходы по Z: -0.05 mm
/Z_Move: 2.0 mm
/Z Start: None mm
/Z End: 15.0 mm
/X,Y End: None mm
(Steps per circle: 64)
/Steps per circle: 64
/Preprocessor Geometry: Charly4U

/X range:    0.4382 ...   47.4361  mm
/Y range:  -74.3394 ...   -3.6877  mm

/Скорость шпинделя: 20000.0 RPM
G71 / измерения в мм
G90 / программирование в абсолютных координатах

F1000
/Tool switching while working is not supported! = Смена инструмента в процессе работы не поддерживается!
M3 S20000.0
F1000
G0 X10.1886 Y-13.9504
F1000
G1 Z-0.0500 F1000
F1000
G1 X10.1847 Y-13.8720
G1 X10.1833 Y-13.8524
G1 X10.1809 Y-13.8329
G1 X10.1693 Y-13.7552
G1 X10.1660 Y-13.7359
G1 X10.1617 Y-13.7167
G1 X10.1426 Y-13.6406
G1 X10.1374 Y-13.6217
G1 X10.1312 Y-13.6030
G1 X10.1048 Y-13.5291
G1 X10.0977 Y-13.5108
G1 X10.0897 Y-13.4928
G1 X10.0562 Y-13.4219
G1 X10.0474 Y-13.4043
G1 X10.0377 Y-13.3872
G1 X9.9973 Y-13.3199
G1 X9.9868 Y-13.3033
G1 X9.9755 Y-13.2873
G1 X9.9287 Y-13.2242
G1 X9.9167 Y-13.2087
G1 X9.9038 Y-13.1939
G1 X9.8511 Y-13.1357
G1 X9.8376 Y-13.1215
G1 X9.8234 Y-13.1079
G1 X9.7652 Y-13.0552
G1 X9.7503 Y-13.0424
G1 X9.7348 Y-13.0303
G1 X9.6718 Y-12.9835
G1 X9.6557 Y-12.9722
G1 X9.6391 Y-12.9617
G1 X9.5718 Y-12.9214
G1 X9.5547 Y-12.9117
G1 X9.5372 Y-12.9029
G1 X9.4662 Y-12.8693
G1 X9.4483 Y-12.8613
G1 X9.4300 Y-12.8543
G1 X9.3560 Y-12.8278
G1 X9.3374 Y-12.8217
G1 X9.3185 Y-12.8164
G1 X9.2423 Y-12.7974
G1 X9.2232 Y-12.7931
G1 X9.2038 Y-12.7897
G1 X9.1262 Y-12.7782
G1 X9.1067 Y-12.7758
G1 X9.0871 Y-12.7743
G1 X9.0087 Y-12.7705
G1 X8.9890 Y-12.7700
G1 X8.9694 Y-12.7705
G1 X8.8910 Y-12.7743
G1 X8.8714 Y-12.7758
G1 X8.8519 Y-12.7782
G1 X8.7743 Y-12.7897
G1 X8.7549 Y-12.7931
G1 X8.7358 Y-12.7974
G1 X8.6596 Y-12.8164
G1 X8.6407 Y-12.8217
G1 X8.6221 Y-12.8278
G1 X8.5481 Y-12.8543
G1 X8.5298 Y-12.8613
G1 X8.5119 Y-12.8693
G1 X8.4409 Y-12.9029
G1 X8.4234 Y-12.9117
G1 X8.4063 Y-12.9214
G1 X8.3390 Y-12.9617
G1 X8.3224 Y-12.9722
G1 X8.3063 Y-12.9835
G1 X8.2433 Y-13.0303
G1 X8.2278 Y-13.0424
G1 X8.2129 Y-13.0552
G1 X8.1547 Y-13.1079
G1 X8.1405 Y-13.1215
G1 X8.1270 Y-13.1357
G1 X8.0743 Y-13.1939
G1 X8.0614 Y-13.2087
G1 X8.0494 Y-13.2242
G1 X8.0026 Y-13.2873
G1 X7.9913 Y-13.3033
G1 X7.9808 Y-13.3199
G1 X7.9404 Y-13.3872
G1 X7.9307 Y-13.4043
G1 X7.9219 Y-13.4219
G1 X7.8884 Y-13.4928
G1 X7.8804 Y-13.5108
G1 X7.8733 Y-13.5291
G1 X7.8469 Y-13.6030
G1 X7.8407 Y-13.6217
G1 X7.8355 Y-13.6406
G1 X7.8164 Y-13.7167
G1 X7.8121 Y-13.7359
G1 X7.8088 Y-13.7552
G1 X7.7972 Y-13.8329
G1 X7.7948 Y-13.8524
G1 X7.7934 Y-13.8720
G1 X7.7895 Y-13.9504
G1 X7.7891 Y-13.9700
G1 X7.7895 Y-13.9896
G1 X7.7934 Y-14.0680
G1 X7.7948 Y-14.0876
G1 X7.7972 Y-14.1071
G1 X7.8088 Y-14.1848
G1 X7.8121 Y-14.2041
G1 X7.8164 Y-14.2233
G1 X7.8355 Y-14.2994
G1 X7.8407 Y-14.3183
G1 X7.8469 Y-14.3370
G1 X7.8733 Y-14.4109
G1 X7.8804 Y-14.4292
G1 X7.8884 Y-14.4472
G1 X7.9219 Y-14.5181
G1 X7.9307 Y-14.5357
G1 X7.9404 Y-14.5528
G1 X7.9808 Y-14.6201
G1 X7.9913 Y-14.6367
G1 X8.0026 Y-14.6527
G1 X8.0494 Y-14.7158
G1 X8.0614 Y-14.7313
G1 X8.0743 Y-14.7461
G1 X8.1270 Y-14.8043
G1 X8.1405 Y-14.8185
G1 X8.1547 Y-14.8321
G1 X8.2129 Y-14.8848
G1 X8.2278 Y-14.8976
G1 X8.2433 Y-14.9097
G1 X8.3063 Y-14.9565
G1 X8.3224 Y-14.9678
G1 X8.3390 Y-14.9783
G1 X8.4063 Y-15.0186
G1 X8.4234 Y-15.0283
G1 X8.4409 Y-15.0371
G1 X8.5119 Y-15.0707
G1 X8.5298 Y-15.0787
G1 X8.5481 Y-15.0857
G1 X8.6221 Y-15.1122
G1 X8.6407 Y-15.1183
G1 X8.6596 Y-15.1236
G1 X8.7358 Y-15.1426
G1 X8.7549 Y-15.1469
G1 X8.7743 Y-15.1503
G1 X8.8519 Y-15.1618
G1 X8.8714 Y-15.1642
G1 X8.8910 Y-15.1657
G1 X8.9694 Y-15.1695
G1 X8.9891 Y-15.1700
G1 X9.0087 Y-15.1695
G1 X9.0871 Y-15.1657
G1 X9.1067 Y-15.1642
G1 X9.1262 Y-15.1618
G1 X9.2038 Y-15.1503
G1 X9.2232 Y-15.1469
G1 X9.2423 Y-15.1426
G1 X9.3185 Y-15.1236
G1 X9.3374 Y-15.1183
G1 X9.3560 Y-15.1122
G1 X9.4300 Y-15.0857
G1 X9.4483 Y-15.0787
G1 X9.4662 Y-15.0707
G1 X9.5372 Y-15.0371
G1 X9.5547 Y-15.0283
G1 X9.5718 Y-15.0186
G1 X9.6391 Y-14.9783
G1 X9.6557 Y-14.9678
G1 X9.6718 Y-14.9565
G1 X9.7348 Y-14.9097
G1 X9.7503 Y-14.8976
G1 X9.7652 Y-14.8848
G1 X9.8234 Y-14.8321
G1 X9.8376 Y-14.8185
G1 X9.8511 Y-14.8043
G1 X9.9038 Y-14.7461
G1 X9.9167 Y-14.7313
G1 X9.9287 Y-14.7158
G1 X9.9755 Y-14.6527
G1 X9.9868 Y-14.6367
G1 X9.9973 Y-14.6201
G1 X10.0377 Y-14.5528
G1 X10.0474 Y-14.5357
G1 X10.0562 Y-14.5181
G1 X10.0897 Y-14.4472
G1 X10.0977 Y-14.4292
G1 X10.1048 Y-14.4109
G1 X10.1312 Y-14.3370
G1 X10.1374 Y-14.3183
G1 X10.1426 Y-14.2994
G1 X10.1617 Y-14.2233
G1 X10.1660 Y-14.2041
G1 X10.1693 Y-14.1848
G1 X10.1809 Y-14.1071
G1 X10.1833 Y-14.0876
G1 X10.1847 Y-14.0680
G1 X10.1886 Y-13.9896
G1 X10.1890 Y-13.9700
G1 X10.1886 Y-13.9504
G0 Z2.0000
G0 X6.3839 Y-23.0295
F1000
G1 Z-0.0500 F1000
F1000
G1 X6.3304 Y-23.0693
G1 X6.3153 Y-23.0817
G1 X6.2497 Y-23.1409
G1 X6.2287 Y-23.1615
G1 X6.1693 Y-23.2269
G1 X6.1564 Y-23.2417
G1 X6.1444 Y-23.2572
G1 X6.0976 Y-23.3203
G1 X6.0809 Y-23.3445
G1 X6.0354 Y-23.4202
G1 X6.0257 Y-23.4373
G1 X6.0169 Y-23.4549
G1 X5.9834 Y-23.5258
G1 X5.9754 Y-23.5438
G1 X5.9683 Y-23.5621
G1 X5.9419 Y-23.6360
G1 X5.9357 Y-23.6547
G1 X5.9305 Y-23.6736
G1 X5.9114 Y-23.7497
G1 X5.9053 Y-23.7785
G1 X5.8922 Y-23.8659
G1 X5.8898 Y-23.8854
G1 X5.8884 Y-23.9050
G1 X5.8845 Y-23.9834
G1 X5.8841 Y-24.0030
G1 X5.8845 Y-24.0226
G1 X5.8884 Y-24.1010
G1 X5.8898 Y-24.1206
G1 X5.8922 Y-24.1401
G1 X5.9038 Y-24.2178
G1 X5.9071 Y-24.2371
G1 X5.9114 Y-24.2563
G1 X5.9305 Y-24.3324
G1 X5.9357 Y-24.3513
G1 X5.9419 Y-24.3700
G1 X5.9683 Y-24.4439
G1 X5.9754 Y-24.4622
G1 X5.9834 Y-24.4802
G1 X6.0169 Y-24.5511
G1 X6.0257 Y-24.5687
G1 X6.0354 Y-24.5858
G1 X6.0758 Y-24.6531
G1 X6.0918 Y-24.6778
G1 X6.1444 Y-24.7488
G1 X6.1564 Y-24.7643
G1 X6.1693 Y-24.7791
G1 X6.2220 Y-24.8373
G1 X6.2355 Y-24.8515
G1 X6.2497 Y-24.8651
G1 X6.3079 Y-24.9178
G1 X6.3228 Y-24.9306
G1 X6.3383 Y-24.9427
G1 X6.4013 Y-24.9895
G1 X6.4174 Y-25.0008
G1 X6.4340 Y-25.0113
G1 X6.5013 Y-25.0516
G1 X6.5184 Y-25.0613
G1 X6.5359 Y-25.0701
G1 X6.6069 Y-25.1037
G1 X6.6248 Y-25.1117
G1 X6.6431 Y-25.1187
G1 X6.7171 Y-25.1452
G1 X6.7357 Y-25.1513
G1 X6.7546 Y-25.1566
G1 X6.8308 Y-25.1756
G1 X6.8499 Y-25.1799
G1 X6.8693 Y-25.1833
G1 X6.9469 Y-25.1948
G1 X6.9664 Y-25.1972
G1 X6.9860 Y-25.1987
G1 X7.0644 Y-25.2025
G1 X7.0841 Y-25.2030
G1 X7.1037 Y-25.2025
G1 X7.1821 Y-25.1987
G1 X7.2017 Y-25.1972
G1 X7.2212 Y-25.1948
G1 X7.2988 Y-25.1833
G1 X7.3182 Y-25.1799
G1 X7.3373 Y-25.1756
G1 X7.4135 Y-25.1566
G1 X7.4324 Y-25.1513
G1 X7.4510 Y-25.1452
G1 X7.5250 Y-25.1187
G1 X7.5433 Y-25.1117
G1 X7.5612 Y-25.1037
G1 X7.6322 Y-25.0701
G1 X7.6497 Y-25.0613
G1 X7.6668 Y-25.0516
G1 X7.7341 Y-25.0113
G1 X7.7588 Y-24.9952
G1 X7.8377 Y-24.9367
G1 X7.8602 Y-24.9178
G1 X7.9184 Y-24.8651
G1 X7.9326 Y-24.8515
G1 X7.9461 Y-24.8373
G1 X7.9988 Y-24.7791
G1 X8.0117 Y-24.7643
G1 X8.0237 Y-24.7488
G1 X8.0705 Y-24.6857
G1 X8.0818 Y-24.6697
G1 X8.0923 Y-24.6531
G1 X8.1327 Y-24.5858
G1 X8.1424 Y-24.5687
G1 X8.1512 Y-24.5511
G1 X8.1847 Y-24.4802
G1 X8.1927 Y-24.4622
G1 X8.1998 Y-24.4439
G1 X8.2262 Y-24.3700
G1 X8.2324 Y-24.3513
G1 X8.2376 Y-24.3324
G1 X8.2567 Y-24.2563
G1 X8.2610 Y-24.2371
G1 X8.2643 Y-24.2178
G1 X8.2759 Y-24.1401
G1 X8.2783 Y-24.1206
G1 X8.2797 Y-24.1010
G1 X8.2836 Y-24.0226
G1 X8.2840 Y-24.0030
G1 X8.2836 Y-23.9834
G1 X8.2797 Y-23.9050
G1 X8.2783 Y-23.8854
G1 X8.2759 Y-23.8659
G1 X8.2643 Y-23.7882
G1 X8.2610 Y-23.7689
G1 X8.2567 Y-23.7497
G1 X8.2376 Y-23.6736
G1 X8.2324 Y-23.6547
G1 X8.2262 Y-23.6360
G1 X8.1998 Y-23.5621
G1 X8.1888 Y-23.5348
G1 X8.1469 Y-23.4460
G1 X8.1327 Y-23.4202
G1 X8.0923 Y-23.3529
G1 X8.0818 Y-23.3363
G1 X8.0705 Y-23.3203
G1 X8.0237 Y-23.2572
G1 X8.0053 Y-23.2342
G1 X7.9394 Y-23.1615
G1 X7.9184 Y-23.1409
G1 X7.8602 Y-23.0882
G1 X7.8453 Y-23.0754
G1 X7.8298 Y-23.0633
G1 X7.7842 Y-23.0295
G1 X7.7842 Y-20.2491
G1 X11.7000 Y-16.3331
G1 X11.7265 Y-16.3041
G1 X11.7393 Y-16.2892
G1 X11.7514 Y-16.2737
G1 X11.7689 Y-16.2501
G1 X11.7856 Y-16.2258
G1 X11.8059 Y-16.1922
G1 X11.8156 Y-16.1751
G1 X11.8244 Y-16.1575
G1 X11.8370 Y-16.1309
G1 X11.8486 Y-16.1038
G1 X11.8619 Y-16.0669
G1 X11.8681 Y-16.0483
G1 X11.8733 Y-16.0293
G1 X11.8805 Y-16.0008
G1 X11.8866 Y-15.9720
G1 X11.8938 Y-15.9234
G1 X11.8963 Y-15.8941
G1 X11.8978 Y-15.8646
G1 X11.8982 Y-15.8450
G1 X11.8982 Y-11.2232
G1 X11.8978 Y-11.2036
G1 X11.8963 Y-11.1742
G1 X11.8938 Y-11.1449
G1 X11.8881 Y-11.1060
G1 X11.8848 Y-11.0866
G1 X11.8805 Y-11.0675
G1 X11.8708 Y-11.0294
G1 X11.8619 Y-11.0014
G1 X11.8486 Y-10.9644
G1 X11.8411 Y-10.9463
G1 X11.8244 Y-10.9107
G1 X11.8156 Y-10.8932
G1 X11.8059 Y-10.8761
G1 X11.7856 Y-10.8425
G1 X11.7747 Y-10.8262
G1 X11.7514 Y-10.7945
G1 X11.7330 Y-10.7716
G1 X11.7067 Y-10.7424
G1 X11.6932 Y-10.7282
G1 X10.5431 Y-9.5781
G1 X10.5431 Y-5.9070
G1 X11.3621 Y-5.0880
G1 X14.2205 Y-5.0880
G1 X17.9690 Y-8.8365
G1 X17.9834 Y-8.8517
G1 X17.9976 Y-8.8652
G1 X18.0268 Y-8.8915
G1 X18.0498 Y-8.9099
G1 X18.0735 Y-8.9274
G1 X18.0895 Y-8.9388
G1 X18.1061 Y-8.9493
G1 X18.1399 Y-8.9693
G1 X18.1660 Y-8.9829
G1 X18.2015 Y-8.9996
G1 X18.2197 Y-9.0071
G1 X18.2566 Y-9.0204
G1 X18.2753 Y-9.0266
G1 X18.2942 Y-9.0318
G1 X18.3228 Y-9.0390
G1 X18.3516 Y-9.0451
G1 X18.3904 Y-9.0510
G1 X18.4099 Y-9.0534
G1 X18.4295 Y-9.0548
G1 X18.4589 Y-9.0563
G1 X18.4785 Y-9.0567
G1 X19.4929 Y-9.0568
G1 X19.4929 Y-18.9352
G1 X17.6159 Y-20.8124
G1 X17.5894 Y-20.8414
G1 X17.5766 Y-20.8563
G1 X17.5645 Y-20.8717
G1 X17.5470 Y-20.8954
G1 X17.5357 Y-20.9115
G1 X17.5252 Y-20.9280
G1 X17.5051 Y-20.9618
G1 X17.4958 Y-20.9791
G1 X17.4789 Y-21.0146
G1 X17.4673 Y-21.0416
G1 X17.4508 Y-21.0878
G1 X17.4451 Y-21.1066
G1 X17.4331 Y-21.1542
G1 X17.4293 Y-21.1735
G1 X17.4221 Y-21.2221
G1 X17.4202 Y-21.2416
G1 X17.4178 Y-21.2906
G1 X17.4178 Y-23.4286
G1 X17.4196 Y-23.4678
G1 X17.4210 Y-23.4874
G1 X17.4234 Y-23.5069
G1 X17.4278 Y-23.5360
G1 X17.4311 Y-23.5554
G1 X17.4354 Y-23.5745
G1 X17.4426 Y-23.6031
G1 X17.4478 Y-23.6220
G1 X17.4540 Y-23.6407
G1 X17.4639 Y-23.6684
G1 X17.4710 Y-23.6867
G1 X17.4789 Y-23.7047
G1 X17.4915 Y-23.7313
G1 X17.5003 Y-23.7488
G1 X17.5100 Y-23.7659
G1 X17.5252 Y-23.7912
G1 X17.5357 Y-23.8078
G1 X17.5470 Y-23.8238
G1 X17.5645 Y-23.8475
G1 X17.5766 Y-23.8630
G1 X17.5894 Y-23.8778
G1 X17.6159 Y-23.9068
G1 X18.9689 Y-25.2601
G1 X18.9832 Y-25.2736
G1 X19.0050 Y-25.2934
G1 X19.0198 Y-25.3062
G1 X19.0353 Y-25.3183
G1 X19.0669 Y-25.3416
G1 X19.0916 Y-25.3577
G1 X19.1169 Y-25.3728
G1 X19.1340 Y-25.3825
G1 X19.1515 Y-25.3913
G1 X19.1781 Y-25.4039
G1 X19.2052 Y-25.4155
G1 X19.2421 Y-25.4288
G1 X19.2608 Y-25.4350
G1 X19.2797 Y-25.4402
G1 X19.3008 Y-25.4455
G1 X19.3123 Y-25.4619
G1 X19.3606 Y-25.5270
G1 X19.3727 Y-25.5424
G1 X19.3855 Y-25.5573
G1 X19.4399 Y-25.6173
G1 X19.4534 Y-25.6316
G1 X19.4677 Y-25.6451
G1 X19.5277 Y-25.6995
G1 X19.5426 Y-25.7123
G1 X19.5580 Y-25.7244
G1 X19.6231 Y-25.7727
G1 X19.6474 Y-25.7893
G1 X19.7337 Y-25.8411
G1 X19.7598 Y-25.8546
G1 X19.8331 Y-25.8893
G1 X19.8510 Y-25.8972
G1 X19.8693 Y-25.9043
G1 X19.9456 Y-25.9316
G1 X19.9643 Y-25.9377
G1 X19.9832 Y-25.9430
G1 X20.0618 Y-25.9627
G1 X20.0809 Y-25.9670
G1 X20.1003 Y-25.9703
G1 X20.1804 Y-25.9822
G1 X20.1999 Y-25.9846
G1 X20.2195 Y-25.9860
G1 X20.3004 Y-25.9900
G1 X20.3200 Y-25.9905
G1 X20.3396 Y-25.9900
G1 X20.4205 Y-25.9860
G1 X20.4401 Y-25.9846
G1 X20.4596 Y-25.9822
G1 X20.5397 Y-25.9703
G1 X20.5591 Y-25.9670
G1 X20.5782 Y-25.9627
G1 X20.6568 Y-25.9430
G1 X20.6757 Y-25.9377
G1 X20.6944 Y-25.9316
G1 X20.7707 Y-25.9043
G1 X20.7890 Y-25.8972
G1 X20.8069 Y-25.8893
G1 X20.8802 Y-25.8546
G1 X20.8977 Y-25.8458
G1 X20.9148 Y-25.8361
G1 X20.9843 Y-25.7945
G1 X21.0009 Y-25.7840
G1 X21.0169 Y-25.7727
G1 X21.0820 Y-25.7244
G1 X21.0974 Y-25.7123
G1 X21.1123 Y-25.6995
G1 X21.1723 Y-25.6451
G1 X21.1866 Y-25.6316
G1 X21.2001 Y-25.6173
G1 X21.2545 Y-25.5573
G1 X21.2673 Y-25.5424
G1 X21.2794 Y-25.5270
G1 X21.3277 Y-25.4619
G1 X21.3390 Y-25.4459
G1 X21.3495 Y-25.4293
G1 X21.3911 Y-25.3598
G1 X21.4008 Y-25.3427
G1 X21.4096 Y-25.3252
G1 X21.4443 Y-25.2519
G1 X21.4522 Y-25.2340
G1 X21.4593 Y-25.2157
G1 X21.4866 Y-25.1394
G1 X21.4927 Y-25.1207
G1 X21.4980 Y-25.1018
G1 X21.5177 Y-25.0232
G1 X21.5220 Y-25.0041
G1 X21.5253 Y-24.9847
G1 X21.5372 Y-24.9046
G1 X21.5396 Y-24.8851
G1 X21.5410 Y-24.8655
G1 X21.5450 Y-24.7846
G1 X21.5455 Y-24.7650
G1 X21.5450 Y-24.7454
G1 X21.5410 Y-24.6645
G1 X21.5396 Y-24.6449
G1 X21.5372 Y-24.6254
G1 X21.5253 Y-24.5453
G1 X21.5220 Y-24.5259
G1 X21.5177 Y-24.5068
G1 X21.4980 Y-24.4282
G1 X21.4927 Y-24.4093
G1 X21.4866 Y-24.3906
G1 X21.4593 Y-24.3143
G1 X21.4522 Y-24.2960
G1 X21.4443 Y-24.2781
G1 X21.4096 Y-24.2048
G1 X21.4008 Y-24.1873
G1 X21.3911 Y-24.1702
G1 X21.3495 Y-24.1007
G1 X21.3390 Y-24.0841
G1 X21.3277 Y-24.0681
G1 X21.2794 Y-24.0030
G1 X21.2673 Y-23.9876
G1 X21.2545 Y-23.9727
G1 X21.2001 Y-23.9127
G1 X21.1866 Y-23.8984
G1 X21.1723 Y-23.8849
G1 X21.1123 Y-23.8305
G1 X21.0974 Y-23.8177
G1 X21.0820 Y-23.8056
G1 X21.0169 Y-23.7573
G1 X20.9926 Y-23.7407
G1 X20.9148 Y-23.6939
G1 X20.8977 Y-23.6842
G1 X20.8802 Y-23.6754
G1 X20.8069 Y-23.6407
G1 X20.7890 Y-23.6328
G1 X20.7707 Y-23.6257
G1 X20.6944 Y-23.5984
G1 X20.6757 Y-23.5923
G1 X20.6568 Y-23.5870
G1 X20.5782 Y-23.5673
G1 X20.5591 Y-23.5630
G1 X20.5397 Y-23.5597
G1 X20.4596 Y-23.5478
G1 X20.4303 Y-23.5446
G1 X20.3396 Y-23.5400
G1 X20.3200 Y-23.5395
G1 X20.3004 Y-23.5400
G1 X20.2097 Y-23.5446
G1 X20.1804 Y-23.5478
G1 X20.1003 Y-23.5597
G1 X20.0809 Y-23.5630
G1 X20.0618 Y-23.5673
G1 X19.9832 Y-23.5870
G1 X19.9643 Y-23.5923
G1 X19.9456 Y-23.5984
G1 X19.8693 Y-23.6257
G1 X19.8510 Y-23.6328
G1 X19.8331 Y-23.6407
G1 X19.7598 Y-23.6754
G1 X19.7423 Y-23.6842
G1 X19.7252 Y-23.6939
G1 X19.6557 Y-23.7355
G1 X19.6311 Y-23.7516
G1 X19.5580 Y-23.8056
G1 X19.5426 Y-23.8177
G1 X19.5235 Y-23.8343
G1 X18.8180 Y-23.1288
G1 X18.8180 Y-21.5905
G1 X20.6881 Y-19.7203
G1 X20.7016 Y-19.7061
G1 X20.7214 Y-19.6843
G1 X20.7342 Y-19.6694
G1 X20.7463 Y-19.6540
G1 X20.7696 Y-19.6223
G1 X20.7805 Y-19.6060
G1 X20.8008 Y-19.5724
G1 X20.8105 Y-19.5553
G1 X20.8193 Y-19.5378
G1 X20.8360 Y-19.5022
G1 X20.8435 Y-19.4841
G1 X20.8568 Y-19.4471
G1 X20.8657 Y-19.4191
G1 X20.8754 Y-19.3810
G1 X20.8797 Y-19.3619
G1 X20.8831 Y-19.3425
G1 X20.8887 Y-19.3036
G1 X20.8912 Y-19.2743
G1 X20.8927 Y-19.2449
G1 X20.8931 Y-19.2253
G1 X20.8930 Y-8.3468
G1 X20.8912 Y-8.3076
G1 X20.8898 Y-8.2880
G1 X20.8874 Y-8.2685
G1 X20.8815 Y-8.2297
G1 X20.8777 Y-8.2104
G1 X20.8682 Y-8.1723
G1 X20.8630 Y-8.1534
G1 X20.8568 Y-8.1347
G1 X20.8435 Y-8.0978
G1 X20.8360 Y-8.0796
G1 X20.8193 Y-8.0441
G1 X20.8105 Y-8.0266
G1 X20.8008 Y-8.0095
G1 X20.7805 Y-7.9758
G1 X20.7696 Y-7.9595
G1 X20.7471 Y-7.9290
G1 X30.4338 Y-7.9290
G1 X46.0359 Y-23.5310
G1 X46.0358 Y-72.2309
G1 X34.0232 Y-72.2309
G1 X33.9497 Y-72.1760
G1 X33.9337 Y-72.1647
G1 X33.9171 Y-72.1542
G1 X33.8508 Y-72.1145
G1 X33.8337 Y-72.1048
G1 X33.8162 Y-72.0960
G1 X33.7463 Y-72.0629
G1 X33.7284 Y-72.0550
G1 X33.7101 Y-72.0479
G1 X33.6373 Y-72.0219
G1 X33.6187 Y-72.0157
G1 X33.5998 Y-72.0105
G1 X33.5153 Y-71.9894
G1 X33.4863 Y-71.9841
G1 X33.4099 Y-71.9727
G1 X33.3904 Y-71.9703
G1 X33.3708 Y-71.9689
G1 X33.2936 Y-71.9651
G1 X33.2740 Y-71.9646
G1 X33.2544 Y-71.9651
G1 X33.1772 Y-71.9689
G1 X33.1576 Y-71.9703
G1 X33.1381 Y-71.9727
G1 X33.0617 Y-71.9841
G1 X33.0423 Y-71.9874
G1 X33.0232 Y-71.9917
G1 X32.9482 Y-72.0105
G1 X32.9200 Y-72.0187
G1 X32.8379 Y-72.0479
G1 X32.8196 Y-72.0550
G1 X32.8017 Y-72.0629
G1 X32.7230 Y-72.1003
G1 X32.6972 Y-72.1145
G1 X32.6225 Y-72.1594
G1 X32.6062 Y-72.1703
G1 X32.5688 Y-72.1979
G1 X29.1203 Y-72.1978
G1 X29.0984 Y-72.1685
G1 X29.0859 Y-72.1533
G1 X29.0225 Y-72.0834
G1 X29.0014 Y-72.0628
G1 X28.9387 Y-72.0061
G1 X28.9157 Y-71.9877
G1 X28.8556 Y-71.9431
G1 X28.8396 Y-71.9318
G1 X28.8230 Y-71.9213
G1 X28.7588 Y-71.8829
G1 X28.7330 Y-71.8687
G1 X28.6477 Y-71.8283
G1 X28.6204 Y-71.8174
G1 X28.5500 Y-71.7922
G1 X28.5313 Y-71.7860
G1 X28.5124 Y-71.7808
G1 X28.4399 Y-71.7626
G1 X28.4207 Y-71.7583
G1 X28.4014 Y-71.7550
G1 X28.3274 Y-71.7440
G1 X28.3079 Y-71.7416
G1 X28.2883 Y-71.7402
G1 X28.2136 Y-71.7365
G1 X28.1842 Y-71.7361
G1 X28.0997 Y-71.7402
G1 X28.0801 Y-71.7416
G1 X28.0606 Y-71.7440
G1 X27.9866 Y-71.7550
G1 X27.9673 Y-71.7583
G1 X27.9481 Y-71.7626
G1 X27.8756 Y-71.7808
G1 X27.8567 Y-71.7860
G1 X27.8380 Y-71.7922
G1 X27.7676 Y-71.8174
G1 X27.7493 Y-71.8245
G1 X27.7314 Y-71.8324
G1 X27.6638 Y-71.8644
G1 X27.6462 Y-71.8732
G1 X27.6292 Y-71.8829
G1 X27.5650 Y-71.9213
G1 X27.5484 Y-71.9318
G1 X27.5324 Y-71.9431
G1 X27.4723 Y-71.9877
G1 X27.4568 Y-71.9998
G1 X27.4420 Y-72.0126
G1 X27.3866 Y-72.0628
G1 X27.3723 Y-72.0763
G1 X27.3588 Y-72.0906
G1 X27.3086 Y-72.1460
G1 X27.2958 Y-72.1608
G1 X27.2837 Y-72.1763
G1 X27.2391 Y-72.2364
G1 X27.2278 Y-72.2524
G1 X27.2173 Y-72.2690
G1 X27.1789 Y-72.3332
G1 X27.1692 Y-72.3502
G1 X27.1604 Y-72.3678
G1 X27.1284 Y-72.4354
G1 X27.1205 Y-72.4533
G1 X27.1134 Y-72.4716
G1 X27.0882 Y-72.5420
G1 X27.0820 Y-72.5607
G1 X27.0768 Y-72.5796
G1 X27.0586 Y-72.6521
G1 X27.0543 Y-72.6713
G1 X27.0510 Y-72.6906
G1 X27.0400 Y-72.7646
G1 X27.0376 Y-72.7841
G1 X27.0362 Y-72.8037
G1 X27.0325 Y-72.8784
G1 X27.0321 Y-72.9078
G1 X27.0362 Y-72.9923
G1 X27.0376 Y-73.0119
G1 X27.0400 Y-73.0314
G1 X27.0510 Y-73.1054
G1 X27.0543 Y-73.1247
G1 X27.0586 Y-73.1439
G1 X27.0768 Y-73.2164
G1 X27.0820 Y-73.2353
G1 X27.0882 Y-73.2540
G1 X27.1134 Y-73.3244
G1 X27.1205 Y-73.3427
G1 X27.1284 Y-73.3606
G1 X27.1647 Y-73.4370
G1 X27.1789 Y-73.4628
G1 X27.2173 Y-73.5270
G1 X27.2278 Y-73.5436
G1 X27.2391 Y-73.5596
G1 X27.2837 Y-73.6197
G1 X27.2958 Y-73.6352
G1 X27.3086 Y-73.6500
G1 X27.3588 Y-73.7054
G1 X27.3723 Y-73.7197
G1 X27.3866 Y-73.7332
G1 X27.4420 Y-73.7834
G1 X27.4645 Y-73.8024
G1 X27.5324 Y-73.8529
G1 X27.5484 Y-73.8642
G1 X27.5650 Y-73.8747
G1 X27.6292 Y-73.9131
G1 X27.6462 Y-73.9228
G1 X27.6638 Y-73.9316
G1 X27.7314 Y-73.9636
G1 X27.7493 Y-73.9715
G1 X27.7676 Y-73.9786
G1 X27.8380 Y-74.0038
G1 X27.8567 Y-74.0100
G1 X27.8756 Y-74.0152
G1 X27.9577 Y-74.0356
G1 X27.9866 Y-74.0410
G1 X28.0606 Y-74.0520
G1 X28.0801 Y-74.0544
G1 X28.0997 Y-74.0558
G1 X28.1744 Y-74.0595
G1 X28.1940 Y-74.0600
G1 X28.2136 Y-74.0595
G1 X28.2883 Y-74.0558
G1 X28.3079 Y-74.0544
G1 X28.3274 Y-74.0520
G1 X28.4014 Y-74.0410
G1 X28.4207 Y-74.0377
G1 X28.4399 Y-74.0334
G1 X28.5124 Y-74.0152
G1 X28.5313 Y-74.0100
G1 X28.5500 Y-74.0038
G1 X28.6296 Y-73.9752
G1 X28.6566 Y-73.9636
G1 X28.7242 Y-73.9316
G1 X28.7418 Y-73.9228
G1 X28.7588 Y-73.9131
G1 X28.8230 Y-73.8747
G1 X28.8396 Y-73.8642
G1 X28.8556 Y-73.8529
G1 X28.9235 Y-73.8024
G1 X28.9460 Y-73.7834
G1 X29.0014 Y-73.7332
G1 X29.0225 Y-73.7126
G1 X29.0859 Y-73.6427
G1 X29.0984 Y-73.6275
G1 X29.1203 Y-73.5981
G1 X32.1737 Y-73.5982
G1 X32.1849 Y-73.6243
G1 X32.2180 Y-73.6942
G1 X32.2268 Y-73.7117
G1 X32.2365 Y-73.7288
G1 X32.2762 Y-73.7951
G1 X32.2867 Y-73.8117
G1 X32.2980 Y-73.8277
G1 X32.3440 Y-73.8898
G1 X32.3561 Y-73.9053
G1 X32.3690 Y-73.9201
G1 X32.4208 Y-73.9774
G1 X32.4344 Y-73.9916
G1 X32.4486 Y-74.0052
G1 X32.5059 Y-74.0570
G1 X32.5207 Y-74.0699
G1 X32.5362 Y-74.0820
G1 X32.5983 Y-74.1280
G1 X32.6143 Y-74.1393
G1 X32.6309 Y-74.1498
G1 X32.6972 Y-74.1895
G1 X32.7143 Y-74.1992
G1 X32.7318 Y-74.2080
G1 X32.8017 Y-74.2411
G1 X32.8196 Y-74.2490
G1 X32.8379 Y-74.2561
G1 X32.9107 Y-74.2821
G1 X32.9293 Y-74.2883
G1 X32.9482 Y-74.2935
G1 X33.0232 Y-74.3123
G1 X33.0423 Y-74.3166
G1 X33.0617 Y-74.3199
G1 X33.1381 Y-74.3313
G1 X33.1576 Y-74.3337
G1 X33.1772 Y-74.3351
G1 X33.2642 Y-74.3393
G1 X33.2936 Y-74.3389
G1 X33.3708 Y-74.3351
G1 X33.3904 Y-74.3337
G1 X33.4099 Y-74.3313
G1 X33.4863 Y-74.3199
G1 X33.5057 Y-74.3166
G1 X33.5248 Y-74.3123
G1 X33.5998 Y-74.2935
G1 X33.6187 Y-74.2883
G1 X33.6373 Y-74.2821
G1 X33.7101 Y-74.2561
G1 X33.7284 Y-74.2490
G1 X33.7463 Y-74.2411
G1 X33.8162 Y-74.2080
G1 X33.8337 Y-74.1992
G1 X33.8508 Y-74.1895
G1 X33.9255 Y-74.1446
G1 X33.9497 Y-74.1280
G1 X34.0118 Y-74.0820
G1 X34.0273 Y-74.0699
G1 X34.0421 Y-74.0570
G1 X34.0994 Y-74.0052
G1 X34.1136 Y-73.9916
G1 X34.1272 Y-73.9774
G1 X34.1856 Y-73.9128
G1 X34.2040 Y-73.8898
G1 X34.2500 Y-73.8277
G1 X34.2666 Y-73.8035
G1 X34.3115 Y-73.7288
G1 X34.3212 Y-73.7117
G1 X34.3300 Y-73.6942
G1 X34.3598 Y-73.6312
G1 X46.7458 Y-73.6310
G1 X46.7850 Y-73.6292
G1 X46.8046 Y-73.6278
G1 X46.8241 Y-73.6254
G1 X46.8532 Y-73.6211
G1 X46.8726 Y-73.6177
G1 X46.8917 Y-73.6134
G1 X46.9298 Y-73.6038
G1 X46.9486 Y-73.5981
G1 X46.9856 Y-73.5849
G1 X47.0039 Y-73.5779
G1 X47.0219 Y-73.5699
G1 X47.0573 Y-73.5530
G1 X47.0746 Y-73.5438
G1 X47.1084 Y-73.5237
G1 X47.1250 Y-73.5132
G1 X47.1410 Y-73.5019
G1 X47.1647 Y-73.4843
G1 X47.1802 Y-73.4722
G1 X47.1950 Y-73.4594
G1 X47.2169 Y-73.4396
G1 X47.2311 Y-73.4261
G1 X47.2446 Y-73.4119
G1 X47.2644 Y-73.3901
G1 X47.2834 Y-73.3675
G1 X47.3126 Y-73.3281
G1 X47.3287 Y-73.3034
G1 X47.3438 Y-73.2782
G1 X47.3535 Y-73.2611
G1 X47.3623 Y-73.2435
G1 X47.3749 Y-73.2169
G1 X47.3865 Y-73.1898
G1 X47.4030 Y-73.1436
G1 X47.4087 Y-73.1248
G1 X47.4207 Y-73.0772
G1 X47.4261 Y-73.0483
G1 X47.4304 Y-73.0191
G1 X47.4328 Y-72.9996
G1 X47.4342 Y-72.9801
G1 X47.4357 Y-72.9506
G1 X47.4361 Y-72.9310
G1 X47.4361 Y-23.2410
G1 X47.4357 Y-23.2214
G1 X47.4342 Y-23.1920
G1 X47.4328 Y-23.1724
G1 X47.4304 Y-23.1529
G1 X47.4245 Y-23.1141
G1 X47.4207 Y-23.0948
G1 X47.4112 Y-23.0567
G1 X47.4060 Y-23.0378
G1 X47.3998 Y-23.0191
G1 X47.3865 Y-22.9822
G1 X47.3790 Y-22.9640
G1 X47.3580 Y-22.9197
G1 X47.3487 Y-22.9024
G1 X47.3287 Y-22.8686
G1 X47.3182 Y-22.8520
G1 X47.3068 Y-22.8360
G1 X47.2893 Y-22.8123
G1 X47.2772 Y-22.7968
G1 X47.2644 Y-22.7820
G1 X47.2446 Y-22.7601
G1 X47.2311 Y-22.7459
G1 X31.2189 Y-6.7338
G1 X31.2047 Y-6.7202
G1 X31.1755 Y-6.6939
G1 X31.1525 Y-6.6755
G1 X31.1209 Y-6.6522
G1 X31.1046 Y-6.6413
G1 X31.0710 Y-6.6210
G1 X31.0539 Y-6.6114
G1 X31.0364 Y-6.6025
G1 X31.0097 Y-6.5899
G1 X30.9827 Y-6.5783
G1 X30.9364 Y-6.5618
G1 X30.9082 Y-6.5536
G1 X30.8796 Y-6.5464
G1 X30.8604 Y-6.5421
G1 X30.8411 Y-6.5388
G1 X30.8022 Y-6.5331
G1 X30.7729 Y-6.5306
G1 X30.7435 Y-6.5292
G1 X30.7238 Y-6.5287
G1 X19.6063 Y-6.5287
G1 X19.5866 Y-6.5292
G1 X19.5572 Y-6.5306
G1 X19.5376 Y-6.5321
G1 X19.5181 Y-6.5345
G1 X19.4793 Y-6.5403
G1 X19.4601 Y-6.5442
G1 X19.4219 Y-6.5536
G1 X19.4030 Y-6.5588
G1 X19.3844 Y-6.5650
G1 X19.3474 Y-6.5783
G1 X19.3204 Y-6.5899
G1 X19.2849 Y-6.6068
G1 X19.2676 Y-6.6161
G1 X19.2339 Y-6.6362
G1 X19.2173 Y-6.6467
G1 X19.2012 Y-6.6580
G1 X19.1697 Y-6.6815
G1 X19.1472 Y-6.7004
G1 X19.1254 Y-6.7202
G1 X19.1112 Y-6.7338
G1 X18.4789 Y-7.3661
G1 X15.0056 Y-3.8928
G1 X14.9914 Y-3.8792
G1 X14.9622 Y-3.8529
G1 X14.9470 Y-3.8405
G1 X14.9155 Y-3.8170
G1 X14.8995 Y-3.8057
G1 X14.8829 Y-3.7952
G1 X14.8492 Y-3.7751
G1 X14.8318 Y-3.7659
G1 X14.7875 Y-3.7449
G1 X14.7601 Y-3.7339
G1 X14.7324 Y-3.7240
G1 X14.7138 Y-3.7178
G1 X14.6948 Y-3.7126
G1 X14.6663 Y-3.7055
G1 X14.6375 Y-3.6994
G1 X14.5889 Y-3.6922
G1 X14.5694 Y-3.6902
G1 X14.5203 Y-3.6878
G1 X11.0721 Y-3.6877
G1 X11.0525 Y-3.6882
G1 X11.0231 Y-3.6896
G1 X11.0035 Y-3.6911
G1 X10.9840 Y-3.6935
G1 X10.9549 Y-3.6978
G1 X10.9355 Y-3.7012
G1 X10.9164 Y-3.7055
G1 X10.8878 Y-3.7126
G1 X10.8689 Y-3.7178
G1 X10.8502 Y-3.7240
G1 X10.8225 Y-3.7339
G1 X10.8042 Y-3.7410
G1 X10.7862 Y-3.7490
G1 X10.7596 Y-3.7615
G1 X10.7421 Y-3.7704
G1 X10.7250 Y-3.7800
G1 X10.6997 Y-3.7952
G1 X10.6831 Y-3.8057
G1 X10.6671 Y-3.8170
G1 X10.6434 Y-3.8345
G1 X10.6279 Y-3.8466
G1 X10.6131 Y-3.8594
G1 X10.5913 Y-3.8792
G1 X10.5770 Y-3.8928
G1 X9.3479 Y-5.1219
G1 X9.3344 Y-5.1361
G1 X9.3146 Y-5.1579
G1 X9.3018 Y-5.1728
G1 X9.2897 Y-5.1883
G1 X9.2664 Y-5.2199
G1 X9.2555 Y-5.2362
G1 X9.2352 Y-5.2698
G1 X9.2255 Y-5.2869
G1 X9.2167 Y-5.3044
G1 X9.2000 Y-5.3400
G1 X9.1925 Y-5.3581
G1 X9.1792 Y-5.3951
G1 X9.1730 Y-5.4137
G1 X9.1678 Y-5.4326
G1 X9.1606 Y-5.4612
G1 X9.1563 Y-5.4804
G1 X9.1529 Y-5.4997
G1 X9.1473 Y-5.5386
G1 X9.1454 Y-5.5581
G1 X9.1433 Y-5.5973
G1 X9.1429 Y-5.6170
G1 X9.1429 Y-9.8681
G1 X9.1433 Y-9.8878
G1 X9.1454 Y-9.9270
G1 X9.1486 Y-9.9563
G1 X9.1529 Y-9.9854
G1 X9.1563 Y-10.0047
G1 X9.1606 Y-10.0239
G1 X9.1703 Y-10.0620
G1 X9.1792 Y-10.0900
G1 X9.1925 Y-10.1270
G1 X9.2000 Y-10.1451
G1 X9.2167 Y-10.1807
G1 X9.2255 Y-10.1982
G1 X9.2352 Y-10.2153
G1 X9.2555 Y-10.2489
G1 X9.2664 Y-10.2652
G1 X9.2897 Y-10.2968
G1 X9.3081 Y-10.3198
G1 X9.3344 Y-10.3490
G1 X9.3479 Y-10.3632
G1 X10.4979 Y-11.5133
G1 X10.4979 Y-15.5550
G1 X6.5890 Y-19.4640
G1 X6.5754 Y-19.4782
G1 X6.5491 Y-19.5074
G1 X6.5307 Y-19.5304
G1 X6.5132 Y-19.5540
G1 X6.5019 Y-19.5701
G1 X6.4914 Y-19.5867
G1 X6.4713 Y-19.6204
G1 X6.4577 Y-19.6465
G1 X6.4452 Y-19.6732
G1 X6.4372 Y-19.6911
G1 X6.4301 Y-19.7094
G1 X6.4202 Y-19.7372
G1 X6.4113 Y-19.7652
G1 X6.3994 Y-19.8129
G1 X6.3940 Y-19.8418
G1 X6.3897 Y-19.8709
G1 X6.3873 Y-19.8904
G1 X6.3858 Y-19.9100
G1 X6.3840 Y-19.9492
G1 X6.3839 Y-23.0295
G0 Z2.0000
G0 X2.8838 Y-24.9765
F1000
G1 Z-0.0500 F1000
F1000
G1 X2.8839 Y-28.4858
G1 X2.8863 Y-28.5348
G1 X2.8896 Y-28.5641
G1 X2.8939 Y-28.5932
G1 X2.8972 Y-28.6125
G1 X2.9015 Y-28.6317
G1 X2.9112 Y-28.6698
G1 X2.9201 Y-28.6978
G1 X2.9300 Y-28.7256
G1 X2.9371 Y-28.7439
G1 X2.9450 Y-28.7618
G1 X2.9619 Y-28.7973
G1 X2.9761 Y-28.8231
G1 X2.9913 Y-28.8483
G1 X3.0018 Y-28.8649
G1 X3.0131 Y-28.8810
G1 X3.0366 Y-28.9124
G1 X3.0555 Y-28.9350
G1 X3.0753 Y-28.9568
G1 X3.0889 Y-28.9710
G1 X6.3181 Y-32.2002
G1 X6.3080 Y-32.2410
G1 X6.3041 Y-32.2603
G1 X6.2877 Y-32.3709
G1 X6.2852 Y-32.4003
G1 X6.2807 Y-32.4924
G1 X6.2803 Y-32.5218
G1 X6.2852 Y-32.6237
G1 X6.2867 Y-32.6433
G1 X6.2891 Y-32.6628
G1 X6.3026 Y-32.7540
G1 X6.3080 Y-32.7830
G1 X6.3352 Y-32.8915
G1 X6.3440 Y-32.9196
G1 X6.3751 Y-33.0064
G1 X6.3822 Y-33.0247
G1 X6.3901 Y-33.0427
G1 X6.4296 Y-33.1260
G1 X6.4384 Y-33.1436
G1 X6.4481 Y-33.1607
G1 X6.4955 Y-33.2398
G1 X6.5060 Y-33.2564
G1 X6.5173 Y-33.2724
G1 X6.5722 Y-33.3465
G1 X6.5843 Y-33.3620
G1 X6.5971 Y-33.3768
G1 X6.6591 Y-33.4452
G1 X6.6726 Y-33.4594
G1 X6.6868 Y-33.4729
G1 X6.7552 Y-33.5349
G1 X6.7700 Y-33.5477
G1 X6.7855 Y-33.5598
G1 X6.8596 Y-33.6147
G1 X6.8756 Y-33.6260
G1 X6.8922 Y-33.6365
G1 X6.9713 Y-33.6839
G1 X6.9884 Y-33.6936
G1 X7.0060 Y-33.7024
G1 X7.0893 Y-33.7419
G1 X7.1073 Y-33.7498
G1 X7.1256 Y-33.7569
G1 X7.2124 Y-33.7880
G1 X7.2405 Y-33.7968
G1 X7.3490 Y-33.8240
G1 X7.3780 Y-33.8294
G1 X7.4692 Y-33.8429
G1 X7.4887 Y-33.8453
G1 X7.5083 Y-33.8468
G1 X7.6102 Y-33.8517
G1 X7.6396 Y-33.8513
G1 X7.7317 Y-33.8468
G1 X7.7611 Y-33.8443
G1 X7.8717 Y-33.8279
G1 X7.8910 Y-33.8240
G1 X7.9318 Y-33.8139
G1 X8.3169 Y-34.1990
G1 X8.3168 Y-47.4999
G1 X8.2809 Y-47.5216
G1 X8.2646 Y-47.5326
G1 X8.1747 Y-47.5992
G1 X8.1522 Y-47.6181
G1 X8.0838 Y-47.6801
G1 X8.0628 Y-47.7006
G1 X7.9941 Y-47.7762
G1 X7.9813 Y-47.7910
G1 X7.9692 Y-47.8065
G1 X7.9143 Y-47.8806
G1 X7.9030 Y-47.8966
G1 X7.8925 Y-47.9132
G1 X7.8451 Y-47.9923
G1 X7.8309 Y-48.0181
G1 X7.7871 Y-48.1103
G1 X7.7792 Y-48.1283
G1 X7.7721 Y-48.1466
G1 X7.7410 Y-48.2334
G1 X7.7349 Y-48.2521
G1 X7.7297 Y-48.2710
G1 X7.7072 Y-48.3605
G1 X7.7029 Y-48.3796
G1 X7.6996 Y-48.3990
G1 X7.6861 Y-48.4902
G1 X7.6837 Y-48.5097
G1 X7.6822 Y-48.5293
G1 X7.6777 Y-48.6214
G1 X7.6772 Y-48.6410
G1 X7.6777 Y-48.6606
G1 X7.6822 Y-48.7527
G1 X7.6847 Y-48.7821
G1 X7.6996 Y-48.8830
G1 X7.7029 Y-48.9024
G1 X7.7072 Y-48.9215
G1 X7.7297 Y-49.0110
G1 X7.7349 Y-49.0299
G1 X7.7410 Y-49.0486
G1 X7.7721 Y-49.1354
G1 X7.7792 Y-49.1537
G1 X7.7871 Y-49.1717
G1 X7.8266 Y-49.2550
G1 X7.8354 Y-49.2726
G1 X7.8451 Y-49.2897
G1 X7.8925 Y-49.3688
G1 X7.9030 Y-49.3854
G1 X7.9143 Y-49.4014
G1 X7.9692 Y-49.4755
G1 X7.9813 Y-49.4910
G1 X7.9941 Y-49.5058
G1 X8.0561 Y-49.5742
G1 X8.0696 Y-49.5884
G1 X8.0838 Y-49.6019
G1 X8.1522 Y-49.6639
G1 X8.1670 Y-49.6767
G1 X8.1825 Y-49.6888
G1 X8.2566 Y-49.7437
G1 X8.2726 Y-49.7550
G1 X8.2892 Y-49.7655
G1 X8.3683 Y-49.8129
G1 X8.3854 Y-49.8226
G1 X8.4030 Y-49.8314
G1 X8.4863 Y-49.8709
G1 X8.5043 Y-49.8788
G1 X8.5226 Y-49.8859
G1 X8.6094 Y-49.9170
G1 X8.6375 Y-49.9258
G1 X8.7460 Y-49.9530
G1 X8.7750 Y-49.9584
G1 X8.8662 Y-49.9719
G1 X8.8857 Y-49.9743
G1 X8.9053 Y-49.9758
G1 X8.9974 Y-49.9803
G1 X9.0268 Y-49.9807
G1 X9.1287 Y-49.9758
G1 X9.1581 Y-49.9733
G1 X9.2687 Y-49.9569
G1 X9.2880 Y-49.9530
G1 X9.3288 Y-49.9429
G1 X11.8729 Y-52.4870
G1 X11.8728 Y-69.0507
G1 X11.8435 Y-69.0726
G1 X11.8283 Y-69.0851
G1 X11.7584 Y-69.1485
G1 X11.7378 Y-69.1696
G1 X11.6876 Y-69.2250
G1 X11.6686 Y-69.2475
G1 X11.6124 Y-69.3233
G1 X11.5963 Y-69.3480
G1 X11.5579 Y-69.4122
G1 X11.5482 Y-69.4292
G1 X11.5394 Y-69.4468
G1 X11.5033 Y-69.5233
G1 X11.4924 Y-69.5506
G1 X11.4672 Y-69.6210
G1 X11.4610 Y-69.6397
G1 X11.4558 Y-69.6586
G1 X11.4376 Y-69.7311
G1 X11.4333 Y-69.7503
G1 X11.4300 Y-69.7696
G1 X11.4190 Y-69.8436
G1 X11.4166 Y-69.8631
G1 X11.4152 Y-69.8827
G1 X11.4115 Y-69.9574
G1 X11.4111 Y-69.9868
G1 X11.4152 Y-70.0713
G1 X11.4166 Y-70.0909
G1 X11.4190 Y-70.1104
G1 X11.4300 Y-70.1844
G1 X11.4333 Y-70.2037
G1 X11.4376 Y-70.2229
G1 X11.4558 Y-70.2954
G1 X11.4610 Y-70.3143
G1 X11.4672 Y-70.3330
G1 X11.4924 Y-70.4034
G1 X11.4995 Y-70.4217
G1 X11.5074 Y-70.4396
G1 X11.5394 Y-70.5072
G1 X11.5482 Y-70.5248
G1 X11.5579 Y-70.5418
G1 X11.5963 Y-70.6060
G1 X11.6068 Y-70.6226
G1 X11.6181 Y-70.6386
G1 X11.6627 Y-70.6987
G1 X11.6748 Y-70.7142
G1 X11.6876 Y-70.7290
G1 X11.7378 Y-70.7844
G1 X11.7513 Y-70.7987
G1 X11.7656 Y-70.8122
G1 X11.8210 Y-70.8624
G1 X11.8358 Y-70.8752
G1 X11.8513 Y-70.8873
G1 X11.9193 Y-70.9376
G1 X11.9440 Y-70.9537
G1 X12.0082 Y-70.9921
G1 X12.0252 Y-71.0018
G1 X12.0428 Y-71.0106
G1 X12.1104 Y-71.0426
G1 X12.1374 Y-71.0542
G1 X12.2263 Y-71.0860
G1 X12.2546 Y-71.0942
G1 X12.3367 Y-71.1146
G1 X12.3656 Y-71.1200
G1 X12.4396 Y-71.1310
G1 X12.4591 Y-71.1334
G1 X12.4787 Y-71.1348
G1 X12.5534 Y-71.1385
G1 X12.5730 Y-71.1390
G1 X12.5926 Y-71.1385
G1 X12.6673 Y-71.1348
G1 X12.6869 Y-71.1334
G1 X12.7064 Y-71.1310
G1 X12.7804 Y-71.1200
G1 X12.8093 Y-71.1146
G1 X12.8914 Y-71.0942
G1 X12.9103 Y-71.0890
G1 X12.9290 Y-71.0828
G1 X12.9994 Y-71.0576
G1 X13.0177 Y-71.0505
G1 X13.0356 Y-71.0426
G1 X13.1032 Y-71.0106
G1 X13.1208 Y-71.0018
G1 X13.1378 Y-70.9921
G1 X13.2020 Y-70.9537
G1 X13.2186 Y-70.9432
G1 X13.2346 Y-70.9319
G1 X13.3025 Y-70.8814
G1 X13.3250 Y-70.8624
G1 X13.3804 Y-70.8122
G1 X13.3947 Y-70.7987
G1 X13.4082 Y-70.7844
G1 X13.4584 Y-70.7290
G1 X13.4712 Y-70.7142
G1 X13.4833 Y-70.6987
G1 X13.5279 Y-70.6386
G1 X13.5392 Y-70.6226
G1 X13.5497 Y-70.6060
G1 X13.5881 Y-70.5418
G1 X13.6023 Y-70.5160
G1 X13.6386 Y-70.4396
G1 X13.6465 Y-70.4217
G1 X13.6536 Y-70.4034
G1 X13.6788 Y-70.3330
G1 X13.6850 Y-70.3143
G1 X13.6902 Y-70.2954
G1 X13.7084 Y-70.2229
G1 X13.7127 Y-70.2037
G1 X13.7160 Y-70.1844
G1 X13.7270 Y-70.1104
G1 X13.7294 Y-70.0909
G1 X13.7308 Y-70.0713
G1 X13.7349 Y-69.9868
G1 X13.7345 Y-69.9574
G1 X13.7308 Y-69.8827
G1 X13.7294 Y-69.8631
G1 X13.7270 Y-69.8436
G1 X13.7160 Y-69.7696
G1 X13.7127 Y-69.7503
G1 X13.7084 Y-69.7311
G1 X13.6902 Y-69.6586
G1 X13.6850 Y-69.6397
G1 X13.6788 Y-69.6210
G1 X13.6536 Y-69.5506
G1 X13.6427 Y-69.5233
G1 X13.6023 Y-69.4380
G1 X13.5881 Y-69.4122
G1 X13.5497 Y-69.3480
G1 X13.5392 Y-69.3314
G1 X13.5279 Y-69.3154
G1 X13.4833 Y-69.2553
G1 X13.4649 Y-69.2323
G1 X13.4082 Y-69.1696
G1 X13.3876 Y-69.1485
G1 X13.3177 Y-69.0851
G1 X13.3025 Y-69.0726
G1 X13.2731 Y-69.0507
G1 X13.2731 Y-52.1970
G1 X13.2727 Y-52.1774
G1 X13.2706 Y-52.1382
G1 X13.2687 Y-52.1186
G1 X13.2615 Y-52.0701
G1 X13.2577 Y-52.0508
G1 X13.2482 Y-52.0127
G1 X13.2430 Y-51.9938
G1 X13.2368 Y-51.9751
G1 X13.2235 Y-51.9382
G1 X13.2160 Y-51.9200
G1 X13.1993 Y-51.8845
G1 X13.1905 Y-51.8670
G1 X13.1808 Y-51.8499
G1 X13.1657 Y-51.8246
G1 X13.1552 Y-51.8080
G1 X13.1438 Y-51.7920
G1 X13.1204 Y-51.7605
G1 X13.1079 Y-51.7453
G1 X13.0816 Y-51.7161
G1 X13.0681 Y-51.7019
G1 X10.3189 Y-48.9528
G1 X10.3290 Y-48.9120
G1 X10.3329 Y-48.8927
G1 X10.3479 Y-48.7918
G1 X10.3512 Y-48.7625
G1 X10.3563 Y-48.6606
G1 X10.3568 Y-48.6410
G1 X10.3563 Y-48.6214
G1 X10.3512 Y-48.5195
G1 X10.3479 Y-48.4902
G1 X10.3344 Y-48.3990
G1 X10.3311 Y-48.3796
G1 X10.3268 Y-48.3605
G1 X10.3043 Y-48.2710
G1 X10.2991 Y-48.2521
G1 X10.2930 Y-48.2334
G1 X10.2619 Y-48.1466
G1 X10.2548 Y-48.1283
G1 X10.2469 Y-48.1103
G1 X10.2074 Y-48.0270
G1 X10.1986 Y-48.0094
G1 X10.1889 Y-47.9923
G1 X10.1415 Y-47.9132
G1 X10.1310 Y-47.8966
G1 X10.1197 Y-47.8806
G1 X10.0648 Y-47.8065
G1 X10.0464 Y-47.7835
G1 X9.9779 Y-47.7078
G1 X9.9644 Y-47.6936
G1 X9.9502 Y-47.6801
G1 X9.8745 Y-47.6116
G1 X9.8515 Y-47.5932
G1 X9.7694 Y-47.5326
G1 X9.7531 Y-47.5216
G1 X9.7171 Y-47.4999
G1 X9.7171 Y-33.9090
G1 X9.7167 Y-33.8894
G1 X9.7152 Y-33.8600
G1 X9.7138 Y-33.8404
G1 X9.7114 Y-33.8209
G1 X9.7071 Y-33.7918
G1 X9.7017 Y-33.7628
G1 X9.6897 Y-33.7152
G1 X9.6808 Y-33.6871
G1 X9.6709 Y-33.6594
G1 X9.6639 Y-33.6411
G1 X9.6559 Y-33.6231
G1 X9.6433 Y-33.5965
G1 X9.6297 Y-33.5704
G1 X9.6045 Y-33.5282
G1 X9.5878 Y-33.5040
G1 X9.5703 Y-33.4803
G1 X9.5582 Y-33.4648
G1 X9.5454 Y-33.4500
G1 X9.5256 Y-33.4281
G1 X9.5121 Y-33.4139
G1 X8.9219 Y-32.8238
G1 X8.9320 Y-32.7830
G1 X8.9359 Y-32.7637
G1 X8.9523 Y-32.6531
G1 X8.9548 Y-32.6237
G1 X8.9593 Y-32.5316
G1 X8.9597 Y-32.5022
G1 X8.9548 Y-32.4003
G1 X8.9533 Y-32.3807
G1 X8.9509 Y-32.3612
G1 X8.9374 Y-32.2700
G1 X8.9320 Y-32.2410
G1 X8.9048 Y-32.1325
G1 X8.8960 Y-32.1044
G1 X8.8649 Y-32.0176
G1 X8.8578 Y-31.9993
G1 X8.8499 Y-31.9813
G1 X8.8104 Y-31.8980
G1 X8.8016 Y-31.8804
G1 X8.7919 Y-31.8633
G1 X8.7445 Y-31.7842
G1 X8.7340 Y-31.7676
G1 X8.7227 Y-31.7516
G1 X8.6678 Y-31.6775
G1 X8.6494 Y-31.6545
G1 X8.5742 Y-31.5716
G1 X8.5532 Y-31.5511
G1 X8.4848 Y-31.4891
G1 X8.4700 Y-31.4763
G1 X8.4545 Y-31.4642
G1 X8.3804 Y-31.4093
G1 X8.3644 Y-31.3980
G1 X8.3478 Y-31.3875
G1 X8.2687 Y-31.3401
G1 X8.2516 Y-31.3304
G1 X8.2340 Y-31.3216
G1 X8.1507 Y-31.2821
G1 X8.1327 Y-31.2742
G1 X8.1144 Y-31.2671
G1 X8.0276 Y-31.2360
G1 X7.9995 Y-31.2272
G1 X7.8910 Y-31.2000
G1 X7.8620 Y-31.1946
G1 X7.7708 Y-31.1811
G1 X7.7513 Y-31.1787
G1 X7.7317 Y-31.1772
G1 X7.6298 Y-31.1723
G1 X7.6004 Y-31.1727
G1 X7.5083 Y-31.1772
G1 X7.4789 Y-31.1797
G1 X7.3683 Y-31.1961
G1 X7.3490 Y-31.2000
G1 X7.3082 Y-31.2101
G1 X4.2841 Y-28.1859
G1 X4.2841 Y-24.9765
G1 X4.3297 Y-24.9427
G1 X4.3452 Y-24.9306
G1 X4.3601 Y-24.9178
G1 X4.4182 Y-24.8651
G1 X4.4393 Y-24.8445
G1 X4.5052 Y-24.7718
G1 X4.5236 Y-24.7488
G1 X4.5704 Y-24.6857
G1 X4.5817 Y-24.6697
G1 X4.5922 Y-24.6531
G1 X4.6326 Y-24.5858
G1 X4.6468 Y-24.5600
G1 X4.6887 Y-24.4712
G1 X4.6997 Y-24.4439
G1 X4.7261 Y-24.3700
G1 X4.7323 Y-24.3513
G1 X4.7375 Y-24.3324
G1 X4.7566 Y-24.2563
G1 X4.7609 Y-24.2371
G1 X4.7642 Y-24.2178
G1 X4.7758 Y-24.1401
G1 X4.7782 Y-24.1206
G1 X4.7796 Y-24.1010
G1 X4.7835 Y-24.0226
G1 X4.7839 Y-24.0030
G1 X4.7835 Y-23.9834
G1 X4.7796 Y-23.9050
G1 X4.7782 Y-23.8854
G1 X4.7758 Y-23.8659
G1 X4.7642 Y-23.7882
G1 X4.7609 Y-23.7689
G1 X4.7566 Y-23.7497
G1 X4.7375 Y-23.6736
G1 X4.7323 Y-23.6547
G1 X4.7261 Y-23.6360
G1 X4.6997 Y-23.5621
G1 X4.6926 Y-23.5438
G1 X4.6846 Y-23.5258
G1 X4.6511 Y-23.4549
G1 X4.6422 Y-23.4373
G1 X4.6326 Y-23.4202
G1 X4.5922 Y-23.3529
G1 X4.5817 Y-23.3363
G1 X4.5704 Y-23.3203
G1 X4.5236 Y-23.2572
G1 X4.5116 Y-23.2417
G1 X4.4987 Y-23.2269
G1 X4.4460 Y-23.1687
G1 X4.4325 Y-23.1545
G1 X4.4182 Y-23.1409
G1 X4.3601 Y-23.0882
G1 X4.3375 Y-23.0693
G1 X4.2587 Y-23.0108
G1 X4.2340 Y-22.9947
G1 X4.1667 Y-22.9544
G1 X4.1496 Y-22.9447
G1 X4.1321 Y-22.9359
G1 X4.0611 Y-22.9023
G1 X4.0432 Y-22.8943
G1 X4.0248 Y-22.8873
G1 X3.9509 Y-22.8608
G1 X3.9323 Y-22.8547
G1 X3.9134 Y-22.8494
G1 X3.8372 Y-22.8304
G1 X3.8180 Y-22.8261
G1 X3.7987 Y-22.8227
G1 X3.7210 Y-22.8112
G1 X3.7016 Y-22.8088
G1 X3.6820 Y-22.8073
G1 X3.6036 Y-22.8035
G1 X3.5839 Y-22.8030
G1 X3.5643 Y-22.8035
G1 X3.4859 Y-22.8073
G1 X3.4663 Y-22.8088
G1 X3.4468 Y-22.8112
G1 X3.3692 Y-22.8227
G1 X3.3498 Y-22.8261
G1 X3.3307 Y-22.8304
G1 X3.2545 Y-22.8494
G1 X3.2356 Y-22.8547
G1 X3.2170 Y-22.8608
G1 X3.1430 Y-22.8873
G1 X3.1247 Y-22.8943
G1 X3.1068 Y-22.9023
G1 X3.0358 Y-22.9359
G1 X3.0183 Y-22.9447
G1 X3.0012 Y-22.9544
G1 X2.9338 Y-22.9947
G1 X2.9173 Y-23.0052
G1 X2.9012 Y-23.0165
G1 X2.8381 Y-23.0633
G1 X2.8227 Y-23.0754
G1 X2.8078 Y-23.0882
G1 X2.7496 Y-23.1409
G1 X2.7354 Y-23.1545
G1 X2.7219 Y-23.1687
G1 X2.6692 Y-23.2269
G1 X2.6563 Y-23.2417
G1 X2.6442 Y-23.2572
G1 X2.5917 Y-23.3282
G1 X2.5757 Y-23.3529
G1 X2.5353 Y-23.4202
G1 X2.5256 Y-23.4373
G1 X2.5168 Y-23.4549
G1 X2.4832 Y-23.5258
G1 X2.4753 Y-23.5438
G1 X2.4682 Y-23.5621
G1 X2.4418 Y-23.6360
G1 X2.4356 Y-23.6547
G1 X2.4304 Y-23.6736
G1 X2.4113 Y-23.7497
G1 X2.4070 Y-23.7689
G1 X2.4036 Y-23.7882
G1 X2.3921 Y-23.8659
G1 X2.3897 Y-23.8854
G1 X2.3883 Y-23.9050
G1 X2.3844 Y-23.9834
G1 X2.3839 Y-24.0030
G1 X2.3844 Y-24.0226
G1 X2.3883 Y-24.1010
G1 X2.3897 Y-24.1206
G1 X2.3921 Y-24.1401
G1 X2.4052 Y-24.2275
G1 X2.4113 Y-24.2563
G1 X2.4304 Y-24.3324
G1 X2.4356 Y-24.3513
G1 X2.4418 Y-24.3700
G1 X2.4682 Y-24.4439
G1 X2.4753 Y-24.4622
G1 X2.4832 Y-24.4802
G1 X2.5168 Y-24.5511
G1 X2.5256 Y-24.5687
G1 X2.5353 Y-24.5858
G1 X2.5808 Y-24.6615
G1 X2.5975 Y-24.6857
G1 X2.6442 Y-24.7488
G1 X2.6563 Y-24.7643
G1 X2.6692 Y-24.7791
G1 X2.7286 Y-24.8445
G1 X2.7496 Y-24.8651
G1 X2.8152 Y-24.9243
G1 X2.8303 Y-24.9367
G1 X2.8838 Y-24.9765
G0 Z2.0000
G0 X13.7331 Y-26.7490
F1000
G1 Z-0.0500 F1000
F1000
G1 X13.7331 Y-29.1652
G1 X13.7335 Y-29.1848
G1 X13.7350 Y-29.2143
G1 X13.7364 Y-29.2338
G1 X13.7388 Y-29.2533
G1 X13.7447 Y-29.2922
G1 X13.7485 Y-29.3114
G1 X13.7580 Y-29.3495
G1 X13.7662 Y-29.3778
G1 X13.7793 Y-29.4148
G1 X13.7864 Y-29.4331
G1 X13.7943 Y-29.4511
G1 X13.8069 Y-29.4777
G1 X13.8205 Y-29.5039
G1 X13.8406 Y-29.5376
G1 X13.8511 Y-29.5542
G1 X13.8624 Y-29.5702
G1 X13.8799 Y-29.5939
G1 X13.8920 Y-29.6094
G1 X13.9048 Y-29.6242
G1 X13.9246 Y-29.6461
G1 X13.9381 Y-29.6603
G1 X16.4781 Y-32.2002
G1 X16.4680 Y-32.2410
G1 X16.4641 Y-32.2603
G1 X16.4477 Y-32.3709
G1 X16.4452 Y-32.4003
G1 X16.4407 Y-32.4924
G1 X16.4403 Y-32.5218
G1 X16.4452 Y-32.6237
G1 X16.4467 Y-32.6433
G1 X16.4491 Y-32.6628
G1 X16.4626 Y-32.7540
G1 X16.4680 Y-32.7830
G1 X16.4952 Y-32.8915
G1 X16.5040 Y-32.9196
G1 X16.5351 Y-33.0064
G1 X16.5422 Y-33.0247
G1 X16.5501 Y-33.0427
G1 X16.5896 Y-33.1260
G1 X16.5984 Y-33.1436
G1 X16.6081 Y-33.1607
G1 X16.6555 Y-33.2398
G1 X16.6660 Y-33.2564
G1 X16.6773 Y-33.2724
G1 X16.7322 Y-33.3465
G1 X16.7443 Y-33.3620
G1 X16.7571 Y-33.3768
G1 X16.8191 Y-33.4452
G1 X16.8396 Y-33.4662
G1 X16.9152 Y-33.5349
G1 X16.9300 Y-33.5477
G1 X16.9455 Y-33.5598
G1 X17.0196 Y-33.6147
G1 X17.0356 Y-33.6260
G1 X17.0522 Y-33.6365
G1 X17.1313 Y-33.6839
G1 X17.1484 Y-33.6936
G1 X17.1660 Y-33.7024
G1 X17.2493 Y-33.7419
G1 X17.2673 Y-33.7498
G1 X17.2856 Y-33.7569
G1 X17.3724 Y-33.7880
G1 X17.3911 Y-33.7941
G1 X17.4100 Y-33.7993
G1 X17.4995 Y-33.8218
G1 X17.5186 Y-33.8261
G1 X17.5380 Y-33.8294
G1 X17.6292 Y-33.8429
G1 X17.6487 Y-33.8453
G1 X17.6683 Y-33.8468
G1 X17.7604 Y-33.8513
G1 X17.7800 Y-33.8518
G1 X17.7996 Y-33.8513
G1 X17.8917 Y-33.8468
G1 X17.9113 Y-33.8453
G1 X17.9308 Y-33.8429
G1 X18.0220 Y-33.8294
G1 X18.0414 Y-33.8261
G1 X18.0605 Y-33.8218
G1 X18.1500 Y-33.7993
G1 X18.1689 Y-33.7941
G1 X18.1876 Y-33.7880
G1 X18.2744 Y-33.7569
G1 X18.3017 Y-33.7459
G1 X18.3940 Y-33.7024
G1 X18.4116 Y-33.6936
G1 X18.4287 Y-33.6839
G1 X18.5078 Y-33.6365
G1 X18.5244 Y-33.6260
G1 X18.5404 Y-33.6147
G1 X18.6145 Y-33.5598
G1 X18.6300 Y-33.5477
G1 X18.6448 Y-33.5349
G1 X18.7132 Y-33.4729
G1 X18.7342 Y-33.4524
G1 X18.8029 Y-33.3768
G1 X18.8157 Y-33.3620
G1 X18.8278 Y-33.3465
G1 X18.8827 Y-33.2724
G1 X18.8940 Y-33.2564
G1 X18.9045 Y-33.2398
G1 X18.9519 Y-33.1607
G1 X18.9661 Y-33.1349
G1 X19.0099 Y-33.0427
G1 X19.0178 Y-33.0247
G1 X19.0249 Y-33.0064
G1 X19.0560 Y-32.9196
G1 X19.0621 Y-32.9009
G1 X19.0673 Y-32.8820
G1 X19.0898 Y-32.7925
G1 X19.0941 Y-32.7734
G1 X19.0974 Y-32.7540
G1 X19.1123 Y-32.6531
G1 X19.1148 Y-32.6237
G1 X19.1193 Y-32.5316
G1 X19.1198 Y-32.5120
G1 X19.1193 Y-32.4924
G1 X19.1142 Y-32.3905
G1 X19.1109 Y-32.3612
G1 X19.0959 Y-32.2603
G1 X19.0920 Y-32.2410
G1 X19.0819 Y-32.2002
G1 X25.0061 Y-26.2761
G1 X25.0196 Y-26.2619
G1 X25.0394 Y-26.2400
G1 X25.0522 Y-26.2252
G1 X25.0643 Y-26.2097
G1 X25.0818 Y-26.1860
G1 X25.0932 Y-26.1700
G1 X25.1037 Y-26.1534
G1 X25.1188 Y-26.1281
G1 X25.1285 Y-26.1110
G1 X25.1373 Y-26.0935
G1 X25.1499 Y-26.0669
G1 X25.1579 Y-26.0489
G1 X25.1649 Y-26.0306
G1 X25.1748 Y-26.0029
G1 X25.1810 Y-25.9842
G1 X25.1862 Y-25.9653
G1 X25.1934 Y-25.9367
G1 X25.1977 Y-25.9176
G1 X25.2011 Y-25.8982
G1 X25.2054 Y-25.8691
G1 X25.2078 Y-25.8496
G1 X25.2092 Y-25.8300
G1 X25.2107 Y-25.8006
G1 X25.2111 Y-25.7810
G1 X25.2112 Y-16.5751
G1 X30.7237 Y-16.5751
G1 X30.7215 Y-16.6239
G1 X30.7215 Y-16.6435
G1 X30.7264 Y-16.7454
G1 X30.7289 Y-16.7748
G1 X30.7437 Y-16.8757
G1 X30.7471 Y-16.8951
G1 X30.7514 Y-16.9142
G1 X30.7738 Y-17.0037
G1 X30.7820 Y-17.0320
G1 X30.8163 Y-17.1281
G1 X30.8233 Y-17.1464
G1 X30.8313 Y-17.1644
G1 X30.8707 Y-17.2477
G1 X30.8796 Y-17.2653
G1 X30.8892 Y-17.2823
G1 X30.9366 Y-17.3615
G1 X30.9471 Y-17.3780
G1 X30.9585 Y-17.3941
G1 X31.0134 Y-17.4682
G1 X31.0318 Y-17.4912
G1 X31.1002 Y-17.5669
G1 X31.1138 Y-17.5811
G1 X31.1280 Y-17.5946
G1 X31.1963 Y-17.6565
G1 X31.2112 Y-17.6694
G1 X31.2267 Y-17.6814
G1 X31.3007 Y-17.7364
G1 X31.3168 Y-17.7477
G1 X31.3334 Y-17.7582
G1 X31.4125 Y-17.8056
G1 X31.4296 Y-17.8153
G1 X31.4471 Y-17.8241
G1 X31.5305 Y-17.8635
G1 X31.5484 Y-17.8715
G1 X31.5667 Y-17.8786
G1 X31.6536 Y-17.9096
G1 X31.6722 Y-17.9158
G1 X31.6911 Y-17.9210
G1 X31.7806 Y-17.9434
G1 X31.7998 Y-17.9477
G1 X31.8191 Y-17.9511
G1 X31.9103 Y-17.9646
G1 X31.9396 Y-17.9679
G1 X32.0415 Y-17.9730
G1 X32.0612 Y-17.9735
G1 X32.0808 Y-17.9730
G1 X32.1729 Y-17.9685
G1 X32.1925 Y-17.9670
G1 X32.2120 Y-17.9646
G1 X32.3032 Y-17.9511
G1 X32.3225 Y-17.9477
G1 X32.3417 Y-17.9434
G1 X32.4312 Y-17.9210
G1 X32.4501 Y-17.9158
G1 X32.4687 Y-17.9096
G1 X32.5556 Y-17.8786
G1 X32.5739 Y-17.8715
G1 X32.5918 Y-17.8635
G1 X32.6840 Y-17.8198
G1 X32.7098 Y-17.8056
G1 X32.7889 Y-17.7582
G1 X32.8055 Y-17.7477
G1 X32.8216 Y-17.7364
G1 X32.8956 Y-17.6814
G1 X32.9111 Y-17.6694
G1 X32.9260 Y-17.6565
G1 X33.0015 Y-17.5879
G1 X33.0221 Y-17.5669
G1 X33.0840 Y-17.4985
G1 X33.1030 Y-17.4760
G1 X33.1696 Y-17.3861
G1 X33.1805 Y-17.3698
G1 X33.2018 Y-17.3346
G1 X35.3944 Y-17.3346
G1 X38.1619 Y-20.1020
G1 X38.1618 Y-20.7029
G1 X38.1259 Y-20.7246
G1 X38.1096 Y-20.7356
G1 X38.0197 Y-20.8022
G1 X37.9972 Y-20.8211
G1 X37.9288 Y-20.8831
G1 X37.9078 Y-20.9036
G1 X37.8326 Y-20.9865
G1 X37.8142 Y-21.0095
G1 X37.7593 Y-21.0836
G1 X37.7480 Y-21.0996
G1 X37.7375 Y-21.1162
G1 X37.6851 Y-21.2038
G1 X37.6716 Y-21.2300
G1 X37.6321 Y-21.3133
G1 X37.6242 Y-21.3313
G1 X37.6171 Y-21.3496
G1 X37.5860 Y-21.4364
G1 X37.5799 Y-21.4551
G1 X37.5747 Y-21.4740
G1 X37.5522 Y-21.5635
G1 X37.5479 Y-21.5826
G1 X37.5446 Y-21.6020
G1 X37.5311 Y-21.6932
G1 X37.5287 Y-21.7127
G1 X37.5272 Y-21.7323
G1 X37.5227 Y-21.8244
G1 X37.5222 Y-21.8440
G1 X37.5227 Y-21.8636
G1 X37.5272 Y-21.9557
G1 X37.5287 Y-21.9753
G1 X37.5311 Y-21.9948
G1 X37.5446 Y-22.0860
G1 X37.5479 Y-22.1054
G1 X37.5522 Y-22.1245
G1 X37.5747 Y-22.2140
G1 X37.5799 Y-22.2329
G1 X37.5860 Y-22.2516
G1 X37.6171 Y-22.3384
G1 X37.6242 Y-22.3567
G1 X37.6321 Y-22.3747
G1 X37.6716 Y-22.4580
G1 X37.6851 Y-22.4842
G1 X37.7375 Y-22.5718
G1 X37.7480 Y-22.5884
G1 X37.7593 Y-22.6044
G1 X37.8142 Y-22.6785
G1 X37.8326 Y-22.7015
G1 X37.9078 Y-22.7844
G1 X37.9288 Y-22.8049
G1 X37.9972 Y-22.8669
G1 X38.0197 Y-22.8858
G1 X38.1096 Y-22.9524
G1 X38.1259 Y-22.9634
G1 X38.1619 Y-22.9851
G1 X38.1618 Y-28.5099
G1 X32.0374 Y-28.5100
G1 X31.9981 Y-28.5118
G1 X31.9786 Y-28.5132
G1 X31.9591 Y-28.5156
G1 X31.9299 Y-28.5199
G1 X31.9106 Y-28.5233
G1 X31.8914 Y-28.5276
G1 X31.8629 Y-28.5348
G1 X31.8439 Y-28.5400
G1 X31.8253 Y-28.5462
G1 X31.7976 Y-28.5561
G1 X31.7792 Y-28.5631
G1 X31.7613 Y-28.5711
G1 X31.7347 Y-28.5837
G1 X31.7171 Y-28.5925
G1 X31.7000 Y-28.6022
G1 X31.6748 Y-28.6173
G1 X31.6582 Y-28.6278
G1 X31.6421 Y-28.6392
G1 X31.6185 Y-28.6567
G1 X31.6030 Y-28.6688
G1 X31.5881 Y-28.6816
G1 X31.5591 Y-28.7081
G1 X31.5452 Y-28.7219
G1 X31.5123 Y-28.7583
G1 X31.4998 Y-28.7735
G1 X31.4706 Y-28.8129
G1 X31.4597 Y-28.8292
G1 X31.4344 Y-28.8714
G1 X31.4252 Y-28.8887
G1 X31.4042 Y-28.9330
G1 X31.3967 Y-28.9512
G1 X31.3801 Y-28.9974
G1 X31.3744 Y-29.0162
G1 X31.3625 Y-29.0638
G1 X31.3587 Y-29.0831
G1 X31.3515 Y-29.1316
G1 X31.3496 Y-29.1512
G1 X31.3475 Y-29.1904
G1 X31.3470 Y-29.2100
G1 X31.3470 Y-34.2478
G1 X31.3103 Y-34.2700
G1 X31.2940 Y-34.2809
G1 X31.2119 Y-34.3416
G1 X31.1889 Y-34.3600
G1 X31.1132 Y-34.4284
G1 X31.0990 Y-34.4419
G1 X31.0855 Y-34.4561
G1 X31.0171 Y-34.5318
G1 X30.9987 Y-34.5548
G1 X30.9437 Y-34.6289
G1 X30.9324 Y-34.6450
G1 X30.9219 Y-34.6615
G1 X30.8745 Y-34.7407
G1 X30.8648 Y-34.7577
G1 X30.8560 Y-34.7753
G1 X30.8125 Y-34.8676
G1 X30.8015 Y-34.8949
G1 X30.7705 Y-34.9817
G1 X30.7643 Y-35.0004
G1 X30.7591 Y-35.0193
G1 X30.7367 Y-35.1088
G1 X30.7324 Y-35.1279
G1 X30.7290 Y-35.1473
G1 X30.7155 Y-35.2385
G1 X30.7131 Y-35.2580
G1 X30.7116 Y-35.2776
G1 X30.7071 Y-35.3697
G1 X30.7066 Y-35.3893
G1 X30.7071 Y-35.4089
G1 X30.7116 Y-35.5011
G1 X30.7131 Y-35.5206
G1 X30.7155 Y-35.5401
G1 X30.7290 Y-35.6313
G1 X30.7344 Y-35.6603
G1 X30.7591 Y-35.7593
G1 X30.7643 Y-35.7782
G1 X30.7705 Y-35.7969
G1 X30.8015 Y-35.8837
G1 X30.8086 Y-35.9020
G1 X30.8166 Y-35.9200
G1 X30.8603 Y-36.0122
G1 X30.8745 Y-36.0380
G1 X30.9219 Y-36.1171
G1 X30.9324 Y-36.1337
G1 X30.9437 Y-36.1497
G1 X30.9987 Y-36.2238
G1 X31.0107 Y-36.2393
G1 X31.0236 Y-36.2541
G1 X31.0855 Y-36.3225
G1 X31.0990 Y-36.3367
G1 X31.1132 Y-36.3502
G1 X31.1816 Y-36.4122
G1 X31.1964 Y-36.4250
G1 X31.2119 Y-36.4371
G1 X31.2940 Y-36.4978
G1 X31.3186 Y-36.5138
G1 X31.3978 Y-36.5612
G1 X31.4148 Y-36.5709
G1 X31.4324 Y-36.5797
G1 X31.5157 Y-36.6192
G1 X31.5337 Y-36.6271
G1 X31.5520 Y-36.6342
G1 X31.6388 Y-36.6653
G1 X31.6575 Y-36.6714
G1 X31.6764 Y-36.6767
G1 X31.7659 Y-36.6991
G1 X31.7850 Y-36.7034
G1 X31.8044 Y-36.7067
G1 X31.9053 Y-36.7216
G1 X31.9347 Y-36.7241
G1 X32.0268 Y-36.7286
G1 X32.0464 Y-36.7291
G1 X32.0660 Y-36.7286
G1 X32.1582 Y-36.7241
G1 X32.1777 Y-36.7227
G1 X32.1972 Y-36.7203
G1 X32.2884 Y-36.7067
G1 X32.3078 Y-36.7034
G1 X32.3269 Y-36.6991
G1 X32.4164 Y-36.6767
G1 X32.4447 Y-36.6685
G1 X32.5408 Y-36.6342
G1 X32.5591 Y-36.6271
G1 X32.5771 Y-36.6192
G1 X32.6605 Y-36.5797
G1 X32.6780 Y-36.5709
G1 X32.6951 Y-36.5612
G1 X32.7742 Y-36.5138
G1 X32.7908 Y-36.5033
G1 X32.8068 Y-36.4920
G1 X32.8809 Y-36.4371
G1 X32.8964 Y-36.4250
G1 X32.9112 Y-36.4122
G1 X32.9796 Y-36.3502
G1 X33.0006 Y-36.3297
G1 X33.0693 Y-36.2541
G1 X33.0821 Y-36.2393
G1 X33.0942 Y-36.2238
G1 X33.1491 Y-36.1497
G1 X33.1604 Y-36.1337
G1 X33.1709 Y-36.1171
G1 X33.2183 Y-36.0380
G1 X33.2280 Y-36.0209
G1 X33.2368 Y-36.0034
G1 X33.2763 Y-35.9200
G1 X33.2842 Y-35.9020
G1 X33.2913 Y-35.8837
G1 X33.3224 Y-35.7969
G1 X33.3313 Y-35.7688
G1 X33.3562 Y-35.6698
G1 X33.3605 Y-35.6507
G1 X33.3638 Y-35.6313
G1 X33.3774 Y-35.5401
G1 X33.3798 Y-35.5206
G1 X33.3812 Y-35.5011
G1 X33.3857 Y-35.4089
G1 X33.3861 Y-35.3795
G1 X33.3812 Y-35.2776
G1 X33.3798 Y-35.2580
G1 X33.3774 Y-35.2385
G1 X33.3638 Y-35.1473
G1 X33.3605 Y-35.1279
G1 X33.3562 Y-35.1088
G1 X33.3338 Y-35.0193
G1 X33.3285 Y-35.0004
G1 X33.3224 Y-34.9817
G1 X33.2913 Y-34.8949
G1 X33.2842 Y-34.8766
G1 X33.2763 Y-34.8586
G1 X33.2325 Y-34.7664
G1 X33.2183 Y-34.7407
G1 X33.1709 Y-34.6615
G1 X33.1604 Y-34.6450
G1 X33.1491 Y-34.6289
G1 X33.0942 Y-34.5548
G1 X33.0758 Y-34.5318
G1 X33.0073 Y-34.4561
G1 X32.9938 Y-34.4419
G1 X32.9796 Y-34.4284
G1 X32.9039 Y-34.3600
G1 X32.8809 Y-34.3416
G1 X32.7989 Y-34.2809
G1 X32.7825 Y-34.2700
G1 X32.7473 Y-34.2487
G1 X32.7473 Y-29.9101
G1 X38.1619 Y-29.9102
G1 X38.1619 Y-32.7300
G1 X36.8361 Y-34.0559
G1 X36.8031 Y-34.0923
G1 X36.7906 Y-34.1075
G1 X36.7614 Y-34.1469
G1 X36.7453 Y-34.1716
G1 X36.7253 Y-34.2054
G1 X36.7117 Y-34.2315
G1 X36.6991 Y-34.2581
G1 X36.6911 Y-34.2761
G1 X36.6841 Y-34.2944
G1 X36.6742 Y-34.3221
G1 X36.6680 Y-34.3408
G1 X36.6628 Y-34.3597
G1 X36.6533 Y-34.3978
G1 X36.6495 Y-34.4171
G1 X36.6436 Y-34.4559
G1 X36.6412 Y-34.4754
G1 X36.6398 Y-34.4950
G1 X36.6383 Y-34.5244
G1 X36.6379 Y-34.5440
G1 X36.6379 Y-36.9570
G1 X36.6383 Y-36.9766
G1 X36.6398 Y-37.0060
G1 X36.6412 Y-37.0256
G1 X36.6436 Y-37.0451
G1 X36.6479 Y-37.0742
G1 X36.6533 Y-37.1032
G1 X36.6628 Y-37.1413
G1 X36.6680 Y-37.1602
G1 X36.6742 Y-37.1789
G1 X36.6841 Y-37.2066
G1 X36.6950 Y-37.2340
G1 X36.7117 Y-37.2695
G1 X36.7205 Y-37.2870
G1 X36.7302 Y-37.3041
G1 X36.7505 Y-37.3378
G1 X36.7672 Y-37.3620
G1 X36.7847 Y-37.3857
G1 X36.7968 Y-37.4012
G1 X36.8096 Y-37.4160
G1 X36.8361 Y-37.4451
G1 X40.8806 Y-41.4898
G1 X40.8626 Y-41.4885
G1 X40.8430 Y-41.4880
G1 X38.5030 Y-41.4880
G1 X38.4736 Y-41.4891
G1 X38.4541 Y-41.4910
G1 X38.4250 Y-41.4957
G1 X38.3963 Y-41.5025
G1 X38.3775 Y-41.5082
G1 X38.3591 Y-41.5148
G1 X38.3320 Y-41.5264
G1 X38.3059 Y-41.5400
G1 X38.2808 Y-41.5554
G1 X38.2647 Y-41.5667
G1 X38.2418 Y-41.5851
G1 X38.2202 Y-41.6052
G1 X38.2066 Y-41.6194
G1 X38.1877 Y-41.6419
G1 X38.1760 Y-41.6577
G1 X38.1599 Y-41.6824
G1 X38.1457 Y-41.7082
G1 X38.1373 Y-41.7259
G1 X38.1298 Y-41.7440
G1 X38.1232 Y-41.7625
G1 X38.1150 Y-41.7908
G1 X38.1089 Y-41.8196
G1 X38.1060 Y-41.8390
G1 X38.1041 Y-41.8586
G1 X38.1030 Y-41.8880
G1 X38.1030 Y-45.4880
G1 X38.1035 Y-45.5076
G1 X38.1049 Y-45.5272
G1 X38.1073 Y-45.5467
G1 X38.1127 Y-45.5756
G1 X38.1202 Y-45.6041
G1 X38.1298 Y-45.6320
G1 X38.1414 Y-45.6590
G1 X38.1550 Y-45.6852
G1 X38.1704 Y-45.7102
G1 X38.1817 Y-45.7263
G1 X38.2001 Y-45.7493
G1 X38.2202 Y-45.7708
G1 X38.2418 Y-45.7909
G1 X38.2569 Y-45.8033
G1 X38.2808 Y-45.8206
G1 X38.3059 Y-45.8360
G1 X38.3320 Y-45.8496
G1 X38.3499 Y-45.8576
G1 X38.3775 Y-45.8678
G1 X38.3963 Y-45.8735
G1 X38.4154 Y-45.8783
G1 X38.4346 Y-45.8821
G1 X38.4541 Y-45.8850
G1 X38.4834 Y-45.8875
G1 X38.5030 Y-45.8880
G1 X38.9721 Y-45.8880
G1 X38.9721 Y-49.5727
G1 X34.7296 Y-53.8152
G1 X34.7161 Y-53.8294
G1 X34.6925 Y-53.8556
G1 X34.6117 Y-53.8938
G1 X34.5942 Y-53.9026
G1 X34.5771 Y-53.9123
G1 X34.4980 Y-53.9597
G1 X34.4733 Y-53.9758
G1 X34.3912 Y-54.0365
G1 X34.3758 Y-54.0485
G1 X34.3609 Y-54.0614
G1 X34.2926 Y-54.1233
G1 X34.2783 Y-54.1368
G1 X34.2648 Y-54.1510
G1 X34.2029 Y-54.2194
G1 X34.1901 Y-54.2342
G1 X34.1780 Y-54.2497
G1 X34.1230 Y-54.3238
G1 X34.1117 Y-54.3399
G1 X34.1012 Y-54.3564
G1 X34.0538 Y-54.4356
G1 X34.0441 Y-54.4526
G1 X34.0353 Y-54.4702
G1 X33.9959 Y-54.5535
G1 X33.9879 Y-54.5715
G1 X33.9809 Y-54.5898
G1 X33.9498 Y-54.6766
G1 X33.9436 Y-54.6953
G1 X33.9384 Y-54.7142
G1 X33.9160 Y-54.8037
G1 X33.9117 Y-54.8228
G1 X33.9083 Y-54.8422
G1 X33.8948 Y-54.9334
G1 X33.8924 Y-54.9529
G1 X33.8909 Y-54.9725
G1 X33.8864 Y-55.0646
G1 X33.8859 Y-55.0842
G1 X33.8864 Y-55.1038
G1 X33.8909 Y-55.1960
G1 X33.8924 Y-55.2155
G1 X33.8948 Y-55.2350
G1 X33.9083 Y-55.3262
G1 X33.9117 Y-55.3456
G1 X33.9160 Y-55.3647
G1 X33.9384 Y-55.4542
G1 X33.9436 Y-55.4731
G1 X33.9498 Y-55.4918
G1 X33.9809 Y-55.5786
G1 X33.9879 Y-55.5969
G1 X33.9959 Y-55.6149
G1 X34.0353 Y-55.6983
G1 X34.0441 Y-55.7158
G1 X34.0538 Y-55.7329
G1 X34.1012 Y-55.8120
G1 X34.1117 Y-55.8286
G1 X34.1230 Y-55.8446
G1 X34.1780 Y-55.9187
G1 X34.1901 Y-55.9342
G1 X34.2029 Y-55.9490
G1 X34.2648 Y-56.0174
G1 X34.2783 Y-56.0316
G1 X34.2926 Y-56.0451
G1 X34.3609 Y-56.1071
G1 X34.3758 Y-56.1199
G1 X34.3912 Y-56.1320
G1 X34.4653 Y-56.1869
G1 X34.4814 Y-56.1982
G1 X34.4980 Y-56.2087
G1 X34.5771 Y-56.2561
G1 X34.5942 Y-56.2658
G1 X34.6117 Y-56.2746
G1 X34.6951 Y-56.3141
G1 X34.7130 Y-56.3220
G1 X34.7313 Y-56.3291
G1 X34.8182 Y-56.3602
G1 X34.8368 Y-56.3663
G1 X34.8557 Y-56.3716
G1 X34.9452 Y-56.3940
G1 X34.9643 Y-56.3983
G1 X34.9837 Y-56.4016
G1 X35.0749 Y-56.4152
G1 X35.0944 Y-56.4176
G1 X35.1140 Y-56.4190
G1 X35.2159 Y-56.4239
G1 X35.2454 Y-56.4235
G1 X35.3375 Y-56.4190
G1 X35.3571 Y-56.4176
G1 X35.3765 Y-56.4152
G1 X35.4678 Y-56.4016
G1 X35.4871 Y-56.3983
G1 X35.5063 Y-56.3940
G1 X35.5957 Y-56.3716
G1 X35.6147 Y-56.3663
G1 X35.6333 Y-56.3602
G1 X35.7201 Y-56.3291
G1 X35.7384 Y-56.3220
G1 X35.7564 Y-56.3141
G1 X35.8398 Y-56.2746
G1 X35.8659 Y-56.2611
G1 X35.9535 Y-56.2087
G1 X35.9701 Y-56.1982
G1 X35.9861 Y-56.1869
G1 X36.0602 Y-56.1320
G1 X36.0832 Y-56.1136
G1 X36.1661 Y-56.0384
G1 X36.1866 Y-56.0174
G1 X36.2486 Y-55.9490
G1 X36.2675 Y-55.9265
G1 X36.3342 Y-55.8367
G1 X36.3451 Y-55.8203
G1 X36.3663 Y-55.7851
G1 X39.2858 Y-55.7850
G1 X39.3251 Y-55.7832
G1 X39.3446 Y-55.7817
G1 X39.3641 Y-55.7793
G1 X39.3933 Y-55.7750
G1 X39.4126 Y-55.7717
G1 X39.4318 Y-55.7674
G1 X39.4603 Y-55.7602
G1 X39.4793 Y-55.7550
G1 X39.4979 Y-55.7488
G1 X39.5256 Y-55.7389
G1 X39.5440 Y-55.7318
G1 X39.5619 Y-55.7239
G1 X39.5885 Y-55.7113
G1 X39.6061 Y-55.7024
G1 X39.6232 Y-55.6928
G1 X39.6484 Y-55.6776
G1 X39.6650 Y-55.6671
G1 X39.6811 Y-55.6558
G1 X39.7047 Y-55.6383
G1 X39.7202 Y-55.6262
G1 X39.7351 Y-55.6134
G1 X39.7569 Y-55.5936
G1 X39.7711 Y-55.5801
G1 X43.6751 Y-51.6761
G1 X43.6886 Y-51.6619
G1 X43.7084 Y-51.6400
G1 X43.7212 Y-51.6252
G1 X43.7333 Y-51.6097
G1 X43.7508 Y-51.5860
G1 X43.7622 Y-51.5700
G1 X43.7727 Y-51.5534
G1 X43.7927 Y-51.5196
G1 X43.8020 Y-51.5023
G1 X43.8189 Y-51.4669
G1 X43.8269 Y-51.4489
G1 X43.8339 Y-51.4306
G1 X43.8470 Y-51.3936
G1 X43.8527 Y-51.3748
G1 X43.8624 Y-51.3367
G1 X43.8667 Y-51.3176
G1 X43.8701 Y-51.2982
G1 X43.8744 Y-51.2691
G1 X43.8768 Y-51.2496
G1 X43.8782 Y-51.2300
G1 X43.8800 Y-51.1908
G1 X43.8801 Y-42.7990
G1 X43.8797 Y-42.7794
G1 X43.8776 Y-42.7402
G1 X43.8757 Y-42.7206
G1 X43.8701 Y-42.6818
G1 X43.8667 Y-42.6624
G1 X43.8624 Y-42.6433
G1 X43.8527 Y-42.6052
G1 X43.8470 Y-42.5864
G1 X43.8305 Y-42.5402
G1 X43.8189 Y-42.5131
G1 X43.8063 Y-42.4865
G1 X43.7975 Y-42.4690
G1 X43.7878 Y-42.4519
G1 X43.7727 Y-42.4266
G1 X43.7566 Y-42.4019
G1 X43.7274 Y-42.3625
G1 X43.7084 Y-42.3400
G1 X43.6886 Y-42.3181
G1 X43.6751 Y-42.3039
G1 X38.0381 Y-36.6670
G1 X38.0381 Y-34.8340
G1 X39.3571 Y-33.5151
G1 X39.3706 Y-33.5009
G1 X39.3904 Y-33.4790
G1 X39.4032 Y-33.4642
G1 X39.4153 Y-33.4487
G1 X39.4328 Y-33.4250
G1 X39.4495 Y-33.4008
G1 X39.4747 Y-33.3586
G1 X39.4883 Y-33.3325
G1 X39.5009 Y-33.3059
G1 X39.5089 Y-33.2879
G1 X39.5159 Y-33.2696
G1 X39.5258 Y-33.2419
G1 X39.5347 Y-33.2138
G1 X39.5444 Y-33.1757
G1 X39.5487 Y-33.1566
G1 X39.5521 Y-33.1372
G1 X39.5564 Y-33.1081
G1 X39.5596 Y-33.0788
G1 X39.5617 Y-33.0396
G1 X39.5621 Y-33.0200
G1 X39.5621 Y-29.5000
G1 X40.9300 Y-28.1321
G1 X41.9119 Y-28.1322
G1 X41.9336 Y-28.1681
G1 X41.9446 Y-28.1844
G1 X42.0112 Y-28.2743
G1 X42.0301 Y-28.2968
G1 X42.0988 Y-28.3724
G1 X42.1198 Y-28.3929
G1 X42.1882 Y-28.4549
G1 X42.2030 Y-28.4677
G1 X42.2185 Y-28.4798
G1 X42.3006 Y-28.5404
G1 X42.3252 Y-28.5565
G1 X42.4043 Y-28.6039
G1 X42.4214 Y-28.6136
G1 X42.4390 Y-28.6224
G1 X42.5223 Y-28.6619
G1 X42.5403 Y-28.6698
G1 X42.5586 Y-28.6769
G1 X42.6454 Y-28.7080
G1 X42.6641 Y-28.7141
G1 X42.6830 Y-28.7193
G1 X42.7725 Y-28.7418
G1 X42.8013 Y-28.7479
G1 X42.9022 Y-28.7629
G1 X42.9217 Y-28.7653
G1 X42.9413 Y-28.7668
G1 X43.0334 Y-28.7713
G1 X43.0530 Y-28.7718
G1 X43.0726 Y-28.7713
G1 X43.1647 Y-28.7668
G1 X43.1843 Y-28.7653
G1 X43.2038 Y-28.7629
G1 X43.2950 Y-28.7494
G1 X43.3240 Y-28.7440
G1 X43.4230 Y-28.7193
G1 X43.4419 Y-28.7141
G1 X43.4606 Y-28.7080
G1 X43.5474 Y-28.6769
G1 X43.5657 Y-28.6698
G1 X43.5837 Y-28.6619
G1 X43.6670 Y-28.6224
G1 X43.6846 Y-28.6136
G1 X43.7017 Y-28.6039
G1 X43.7808 Y-28.5565
G1 X43.7974 Y-28.5460
G1 X43.8134 Y-28.5347
G1 X43.8875 Y-28.4798
G1 X43.9030 Y-28.4677
G1 X43.9178 Y-28.4549
G1 X43.9862 Y-28.3929
G1 X44.0004 Y-28.3794
G1 X44.0139 Y-28.3652
G1 X44.0759 Y-28.2968
G1 X44.0948 Y-28.2743
G1 X44.1614 Y-28.1844
G1 X44.1775 Y-28.1598
G1 X44.2249 Y-28.0807
G1 X44.2391 Y-28.0549
G1 X44.2829 Y-27.9627
G1 X44.2908 Y-27.9447
G1 X44.2979 Y-27.9264
G1 X44.3290 Y-27.8396
G1 X44.3351 Y-27.8209
G1 X44.3403 Y-27.8020
G1 X44.3628 Y-27.7125
G1 X44.3671 Y-27.6934
G1 X44.3704 Y-27.6740
G1 X44.3839 Y-27.5828
G1 X44.3863 Y-27.5633
G1 X44.3878 Y-27.5437
G1 X44.3923 Y-27.4516
G1 X44.3928 Y-27.4320
G1 X44.3923 Y-27.4124
G1 X44.3878 Y-27.3203
G1 X44.3863 Y-27.3007
G1 X44.3839 Y-27.2812
G1 X44.3704 Y-27.1900
G1 X44.3671 Y-27.1706
G1 X44.3628 Y-27.1515
G1 X44.3403 Y-27.0620
G1 X44.3351 Y-27.0431
G1 X44.3290 Y-27.0244
G1 X44.2945 Y-26.9284
G1 X44.2829 Y-26.9013
G1 X44.2434 Y-26.8180
G1 X44.2346 Y-26.8004
G1 X44.2249 Y-26.7833
G1 X44.1775 Y-26.7042
G1 X44.1614 Y-26.6796
G1 X44.1008 Y-26.5975
G1 X44.0887 Y-26.5820
G1 X44.0759 Y-26.5672
G1 X44.0139 Y-26.4988
G1 X44.0004 Y-26.4846
G1 X43.9862 Y-26.4711
G1 X43.9178 Y-26.4091
G1 X43.9030 Y-26.3963
G1 X43.8875 Y-26.3842
G1 X43.8134 Y-26.3293
G1 X43.7974 Y-26.3180
G1 X43.7808 Y-26.3075
G1 X43.7017 Y-26.2601
G1 X43.6759 Y-26.2459
G1 X43.5837 Y-26.2021
G1 X43.5657 Y-26.1942
G1 X43.5474 Y-26.1871
G1 X43.4606 Y-26.1560
G1 X43.4419 Y-26.1499
G1 X43.4230 Y-26.1447
G1 X43.3335 Y-26.1222
G1 X43.3144 Y-26.1179
G1 X43.2950 Y-26.1146
G1 X43.2038 Y-26.1011
G1 X43.1843 Y-26.0987
G1 X43.1647 Y-26.0972
G1 X43.0726 Y-26.0927
G1 X43.0530 Y-26.0922
G1 X43.0334 Y-26.0927
G1 X42.9413 Y-26.0972
G1 X42.9119 Y-26.0997
G1 X42.8013 Y-26.1161
G1 X42.7725 Y-26.1222
G1 X42.6830 Y-26.1447
G1 X42.6641 Y-26.1499
G1 X42.6454 Y-26.1560
G1 X42.5586 Y-26.1871
G1 X42.5403 Y-26.1942
G1 X42.5223 Y-26.2021
G1 X42.4390 Y-26.2416
G1 X42.4214 Y-26.2504
G1 X42.4043 Y-26.2601
G1 X42.3169 Y-26.3126
G1 X42.2926 Y-26.3293
G1 X42.2185 Y-26.3842
G1 X42.2030 Y-26.3963
G1 X42.1882 Y-26.4091
G1 X42.1198 Y-26.4711
G1 X42.0988 Y-26.4916
G1 X42.0301 Y-26.5672
G1 X42.0112 Y-26.5897
G1 X41.9446 Y-26.6796
G1 X41.9336 Y-26.6959
G1 X41.9119 Y-26.7319
G1 X40.6302 Y-26.7320
G1 X40.5910 Y-26.7338
G1 X40.5714 Y-26.7352
G1 X40.5519 Y-26.7376
G1 X40.5228 Y-26.7419
G1 X40.5034 Y-26.7453
G1 X40.4843 Y-26.7496
G1 X40.4557 Y-26.7568
G1 X40.4368 Y-26.7620
G1 X40.4181 Y-26.7682
G1 X40.3904 Y-26.7781
G1 X40.3721 Y-26.7851
G1 X40.3541 Y-26.7931
G1 X40.3275 Y-26.8057
G1 X40.3100 Y-26.8145
G1 X40.2929 Y-26.8242
G1 X40.2592 Y-26.8445
G1 X40.2429 Y-26.8554
G1 X40.2035 Y-26.8846
G1 X40.1883 Y-26.8971
G1 X40.1591 Y-26.9234
G1 X40.1449 Y-26.9369
G1 X39.5621 Y-27.5197
G1 X39.5622 Y-22.9851
G1 X39.5981 Y-22.9634
G1 X39.6144 Y-22.9524
G1 X39.6965 Y-22.8918
G1 X39.7195 Y-22.8734
G1 X39.7952 Y-22.8049
G1 X39.8094 Y-22.7914
G1 X39.8229 Y-22.7772
G1 X39.8914 Y-22.7015
G1 X39.9098 Y-22.6785
G1 X39.9647 Y-22.6044
G1 X39.9760 Y-22.5884
G1 X39.9865 Y-22.5718
G1 X40.0339 Y-22.4927
G1 X40.0436 Y-22.4756
G1 X40.0524 Y-22.4580
G1 X40.0919 Y-22.3747
G1 X40.1035 Y-22.3476
G1 X40.1380 Y-22.2516
G1 X40.1441 Y-22.2329
G1 X40.1493 Y-22.2140
G1 X40.1718 Y-22.1245
G1 X40.1761 Y-22.1054
G1 X40.1794 Y-22.0860
G1 X40.1929 Y-21.9948
G1 X40.1953 Y-21.9753
G1 X40.1968 Y-21.9557
G1 X40.2013 Y-21.8636
G1 X40.2018 Y-21.8440
G1 X40.2013 Y-21.8244
G1 X40.1962 Y-21.7225
G1 X40.1929 Y-21.6932
G1 X40.1794 Y-21.6020
G1 X40.1761 Y-21.5826
G1 X40.1718 Y-21.5635
G1 X40.1493 Y-21.4740
G1 X40.1441 Y-21.4551
G1 X40.1380 Y-21.4364
G1 X40.1069 Y-21.3496
G1 X40.0998 Y-21.3313
G1 X40.0919 Y-21.3133
G1 X40.0524 Y-21.2300
G1 X40.0436 Y-21.2124
G1 X40.0339 Y-21.1953
G1 X39.9865 Y-21.1162
G1 X39.9760 Y-21.0996
G1 X39.9647 Y-21.0836
G1 X39.9038 Y-21.0017
G1 X39.8849 Y-20.9792
G1 X39.8229 Y-20.9108
G1 X39.8094 Y-20.8966
G1 X39.7952 Y-20.8831
G1 X39.7195 Y-20.8146
G1 X39.6965 Y-20.7962
G1 X39.6144 Y-20.7356
G1 X39.5981 Y-20.7246
G1 X39.5621 Y-20.7029
G1 X39.5621 Y-19.8120
G1 X39.5617 Y-19.7924
G1 X39.5602 Y-19.7630
G1 X39.5577 Y-19.7336
G1 X39.5521 Y-19.6948
G1 X39.5487 Y-19.6754
G1 X39.5444 Y-19.6563
G1 X39.5372 Y-19.6277
G1 X39.5290 Y-19.5994
G1 X39.5159 Y-19.5624
G1 X39.5089 Y-19.5441
G1 X39.5009 Y-19.5261
G1 X39.4883 Y-19.4995
G1 X39.4747 Y-19.4734
G1 X39.4547 Y-19.4396
G1 X39.4442 Y-19.4230
G1 X39.4328 Y-19.4070
G1 X39.4153 Y-19.3833
G1 X39.3969 Y-19.3603
G1 X39.3706 Y-19.3311
G1 X39.3571 Y-19.3169
G1 X36.1795 Y-16.1394
G1 X36.1653 Y-16.1258
G1 X36.1435 Y-16.1061
G1 X36.1210 Y-16.0871
G1 X36.0815 Y-16.0579
G1 X36.0568 Y-16.0418
G1 X36.0316 Y-16.0266
G1 X36.0145 Y-16.0170
G1 X35.9970 Y-16.0081
G1 X35.9614 Y-15.9915
G1 X35.9341 Y-15.9805
G1 X35.9063 Y-15.9706
G1 X35.8877 Y-15.9644
G1 X35.8688 Y-15.9592
G1 X35.8402 Y-15.9521
G1 X35.8114 Y-15.9460
G1 X35.7726 Y-15.9401
G1 X35.7531 Y-15.9377
G1 X35.7335 Y-15.9362
G1 X35.7041 Y-15.9348
G1 X35.6845 Y-15.9343
G1 X33.2027 Y-15.9343
G1 X33.1805 Y-15.8976
G1 X33.1696 Y-15.8812
G1 X33.1089 Y-15.7992
G1 X33.0905 Y-15.7762
G1 X33.0221 Y-15.7005
G1 X33.0085 Y-15.6863
G1 X32.9943 Y-15.6728
G1 X32.9186 Y-15.6043
G1 X32.8956 Y-15.5859
G1 X32.8216 Y-15.5310
G1 X32.8055 Y-15.5197
G1 X32.7889 Y-15.5092
G1 X32.7098 Y-15.4618
G1 X32.6927 Y-15.4521
G1 X32.6752 Y-15.4433
G1 X32.5918 Y-15.4038
G1 X32.5739 Y-15.3959
G1 X32.5556 Y-15.3888
G1 X32.4687 Y-15.3577
G1 X32.4501 Y-15.3516
G1 X32.4312 Y-15.3463
G1 X32.3417 Y-15.3239
G1 X32.3225 Y-15.3196
G1 X32.3032 Y-15.3163
G1 X32.2120 Y-15.3027
G1 X32.1827 Y-15.2995
G1 X32.0808 Y-15.2944
G1 X32.0611 Y-15.2939
G1 X32.0415 Y-15.2944
G1 X31.9396 Y-15.2995
G1 X31.9103 Y-15.3027
G1 X31.8094 Y-15.3178
G1 X31.7902 Y-15.3217
G1 X31.7454 Y-15.3328
G1 X31.7311 Y-15.3217
G1 X31.7075 Y-15.3041
G1 X31.6914 Y-15.2928
G1 X31.6748 Y-15.2823
G1 X31.6496 Y-15.2672
G1 X31.6238 Y-15.2530
G1 X31.5883 Y-15.2361
G1 X31.5704 Y-15.2281
G1 X31.5521 Y-15.2211
G1 X31.5150 Y-15.2080
G1 X31.4963 Y-15.2023
G1 X31.4582 Y-15.1926
G1 X31.4390 Y-15.1883
G1 X31.4197 Y-15.1849
G1 X31.3808 Y-15.1793
G1 X31.3613 Y-15.1774
G1 X31.3221 Y-15.1753
G1 X31.3025 Y-15.1749
G1 X25.2111 Y-15.1748
G1 X25.2111 Y-11.5930
G1 X26.2312 Y-10.5729
G1 X26.2720 Y-10.5830
G1 X26.2913 Y-10.5869
G1 X26.3922 Y-10.6019
G1 X26.4215 Y-10.6052
G1 X26.5234 Y-10.6103
G1 X26.5430 Y-10.6108
G1 X26.5626 Y-10.6103
G1 X26.6645 Y-10.6052
G1 X26.6938 Y-10.6019
G1 X26.7850 Y-10.5884
G1 X26.8044 Y-10.5851
G1 X26.8235 Y-10.5808
G1 X26.9130 Y-10.5583
G1 X26.9319 Y-10.5531
G1 X26.9506 Y-10.5470
G1 X27.0466 Y-10.5125
G1 X27.0737 Y-10.5009
G1 X27.1570 Y-10.4614
G1 X27.1746 Y-10.4526
G1 X27.1917 Y-10.4429
G1 X27.2708 Y-10.3955
G1 X27.2874 Y-10.3850
G1 X27.3034 Y-10.3737
G1 X27.3775 Y-10.3188
G1 X27.3930 Y-10.3067
G1 X27.4078 Y-10.2939
G1 X27.4762 Y-10.2319
G1 X27.4904 Y-10.2184
G1 X27.5039 Y-10.2042
G1 X27.5659 Y-10.1358
G1 X27.5787 Y-10.1210
G1 X27.5908 Y-10.1055
G1 X27.6514 Y-10.0234
G1 X27.6675 Y-9.9988
G1 X27.7149 Y-9.9197
G1 X27.7246 Y-9.9026
G1 X27.7334 Y-9.8850
G1 X27.7729 Y-9.8017
G1 X27.7808 Y-9.7837
G1 X27.7879 Y-9.7654
G1 X27.8190 Y-9.6786
G1 X27.8251 Y-9.6599
G1 X27.8303 Y-9.6410
G1 X27.8528 Y-9.5515
G1 X27.8571 Y-9.5324
G1 X27.8604 Y-9.5130
G1 X27.8739 Y-9.4218
G1 X27.8763 Y-9.4023
G1 X27.8778 Y-9.3827
G1 X27.8823 Y-9.2906
G1 X27.8828 Y-9.2710
G1 X27.8823 Y-9.2514
G1 X27.8778 Y-9.1593
G1 X27.8763 Y-9.1397
G1 X27.8739 Y-9.1202
G1 X27.8604 Y-9.0290
G1 X27.8571 Y-9.0096
G1 X27.8528 Y-8.9905
G1 X27.8303 Y-8.9010
G1 X27.8251 Y-8.8821
G1 X27.8190 Y-8.8634
G1 X27.7879 Y-8.7766
G1 X27.7808 Y-8.7583
G1 X27.7729 Y-8.7403
G1 X27.7334 Y-8.6570
G1 X27.7246 Y-8.6394
G1 X27.7149 Y-8.6223
G1 X27.6675 Y-8.5432
G1 X27.6570 Y-8.5266
G1 X27.6457 Y-8.5106
G1 X27.5908 Y-8.4365
G1 X27.5787 Y-8.4210
G1 X27.5659 Y-8.4062
G1 X27.5039 Y-8.3378
G1 X27.4904 Y-8.3236
G1 X27.4762 Y-8.3101
G1 X27.4078 Y-8.2481
G1 X27.3930 Y-8.2353
G1 X27.3775 Y-8.2232
G1 X27.3034 Y-8.1683
G1 X27.2791 Y-8.1516
G1 X27.1917 Y-8.0991
G1 X27.1746 Y-8.0894
G1 X27.1570 Y-8.0806
G1 X27.0737 Y-8.0411
G1 X27.0557 Y-8.0332
G1 X27.0374 Y-8.0261
G1 X26.9506 Y-7.9950
G1 X26.9319 Y-7.9889
G1 X26.9130 Y-7.9837
G1 X26.8235 Y-7.9612
G1 X26.8044 Y-7.9569
G1 X26.7850 Y-7.9536
G1 X26.6938 Y-7.9401
G1 X26.6645 Y-7.9368
G1 X26.5626 Y-7.9317
G1 X26.5430 Y-7.9312
G1 X26.5234 Y-7.9317
G1 X26.4313 Y-7.9362
G1 X26.4117 Y-7.9377
G1 X26.3922 Y-7.9401
G1 X26.3010 Y-7.9536
G1 X26.2816 Y-7.9569
G1 X26.2625 Y-7.9612
G1 X26.1730 Y-7.9837
G1 X26.1541 Y-7.9889
G1 X26.1354 Y-7.9950
G1 X26.0486 Y-8.0261
G1 X26.0303 Y-8.0332
G1 X26.0123 Y-8.0411
G1 X25.9201 Y-8.0849
G1 X25.8943 Y-8.0991
G1 X25.8152 Y-8.1465
G1 X25.7986 Y-8.1570
G1 X25.7826 Y-8.1683
G1 X25.7085 Y-8.2232
G1 X25.6855 Y-8.2416
G1 X25.6098 Y-8.3101
G1 X25.5956 Y-8.3236
G1 X25.5821 Y-8.3378
G1 X25.5201 Y-8.4062
G1 X25.5073 Y-8.4210
G1 X25.4952 Y-8.4365
G1 X25.4403 Y-8.5106
G1 X25.4290 Y-8.5266
G1 X25.4185 Y-8.5432
G1 X25.3711 Y-8.6223
G1 X25.3614 Y-8.6394
G1 X25.3526 Y-8.6570
G1 X25.3131 Y-8.7403
G1 X25.3052 Y-8.7583
G1 X25.2981 Y-8.7766
G1 X25.2639 Y-8.8727
G1 X25.2557 Y-8.9010
G1 X25.2332 Y-8.9905
G1 X25.2289 Y-9.0096
G1 X25.2256 Y-9.0290
G1 X25.2121 Y-9.1202
G1 X25.2097 Y-9.1397
G1 X25.2082 Y-9.1593
G1 X25.2033 Y-9.2612
G1 X25.2037 Y-9.2906
G1 X25.2082 Y-9.3827
G1 X25.2107 Y-9.4121
G1 X25.2271 Y-9.5227
G1 X25.2310 Y-9.5420
G1 X25.2411 Y-9.5828
G1 X24.0159 Y-10.8079
G1 X24.0024 Y-10.8221
G1 X23.9826 Y-10.8440
G1 X23.9636 Y-10.8665
G1 X23.9402 Y-10.8980
G1 X23.9288 Y-10.9140
G1 X23.9183 Y-10.9306
G1 X23.9032 Y-10.9559
G1 X23.8890 Y-10.9817
G1 X23.8721 Y-11.0171
G1 X23.8641 Y-11.0351
G1 X23.8571 Y-11.0534
G1 X23.8472 Y-11.0811
G1 X23.8383 Y-11.1092
G1 X23.8286 Y-11.1473
G1 X23.8243 Y-11.1664
G1 X23.8209 Y-11.1858
G1 X23.8166 Y-11.2149
G1 X23.8142 Y-11.2344
G1 X23.8128 Y-11.2540
G1 X23.8113 Y-11.2834
G1 X23.8109 Y-11.3030
G1 X23.8109 Y-25.4910
G1 X18.0918 Y-31.2101
G1 X18.0510 Y-31.2000
G1 X18.0317 Y-31.1961
G1 X17.9211 Y-31.1797
G1 X17.8917 Y-31.1772
G1 X17.7996 Y-31.1727
G1 X17.7800 Y-31.1722
G1 X17.7604 Y-31.1727
G1 X17.6683 Y-31.1772
G1 X17.6389 Y-31.1797
G1 X17.5283 Y-31.1961
G1 X17.5090 Y-31.2000
G1 X17.4682 Y-31.2101
G1 X15.1334 Y-28.8752
G1 X15.1334 Y-26.7491
G1 X15.1694 Y-26.7274
G1 X15.1857 Y-26.7165
G1 X15.2756 Y-26.6498
G1 X15.2981 Y-26.6309
G1 X15.3665 Y-26.5689
G1 X15.3875 Y-26.5484
G1 X15.4626 Y-26.4655
G1 X15.4810 Y-26.4425
G1 X15.5360 Y-26.3684
G1 X15.5473 Y-26.3524
G1 X15.5578 Y-26.3358
G1 X15.6102 Y-26.2482
G1 X15.6237 Y-26.2221
G1 X15.6631 Y-26.1387
G1 X15.6711 Y-26.1207
G1 X15.6782 Y-26.1024
G1 X15.7092 Y-26.0156
G1 X15.7154 Y-25.9969
G1 X15.7206 Y-25.9780
G1 X15.7430 Y-25.8886
G1 X15.7473 Y-25.8694
G1 X15.7507 Y-25.8501
G1 X15.7642 Y-25.7588
G1 X15.7666 Y-25.7393
G1 X15.7681 Y-25.7198
G1 X15.7726 Y-25.6276
G1 X15.7731 Y-25.6080
G1 X15.7726 Y-25.5884
G1 X15.7681 Y-25.4963
G1 X15.7666 Y-25.4767
G1 X15.7642 Y-25.4572
G1 X15.7507 Y-25.3660
G1 X15.7473 Y-25.3466
G1 X15.7430 Y-25.3275
G1 X15.7206 Y-25.2380
G1 X15.7154 Y-25.2191
G1 X15.7092 Y-25.2005
G1 X15.6782 Y-25.1136
G1 X15.6711 Y-25.0953
G1 X15.6631 Y-25.0774
G1 X15.6237 Y-24.9940
G1 X15.6149 Y-24.9764
G1 X15.6052 Y-24.9594
G1 X15.5578 Y-24.8803
G1 X15.5473 Y-24.8637
G1 X15.5360 Y-24.8476
G1 X15.4810 Y-24.7735
G1 X15.4690 Y-24.7581
G1 X15.4561 Y-24.7432
G1 X15.3942 Y-24.6749
G1 X15.3807 Y-24.6606
G1 X15.3665 Y-24.6471
G1 X15.2981 Y-24.5852
G1 X15.2833 Y-24.5723
G1 X15.2678 Y-24.5603
G1 X15.1937 Y-24.5053
G1 X15.1694 Y-24.4887
G1 X15.0819 Y-24.4361
G1 X15.0649 Y-24.4264
G1 X15.0473 Y-24.4176
G1 X14.9640 Y-24.3782
G1 X14.9460 Y-24.3702
G1 X14.9277 Y-24.3631
G1 X14.8409 Y-24.3321
G1 X14.8222 Y-24.3259
G1 X14.8033 Y-24.3207
G1 X14.7138 Y-24.2983
G1 X14.6947 Y-24.2940
G1 X14.6753 Y-24.2906
G1 X14.5841 Y-24.2771
G1 X14.5646 Y-24.2747
G1 X14.5450 Y-24.2732
G1 X14.4529 Y-24.2687
G1 X14.4333 Y-24.2682
G1 X14.4137 Y-24.2687
G1 X14.3215 Y-24.2732
G1 X14.3020 Y-24.2747
G1 X14.2825 Y-24.2771
G1 X14.1913 Y-24.2906
G1 X14.1719 Y-24.2940
G1 X14.1528 Y-24.2983
G1 X14.0633 Y-24.3207
G1 X14.0444 Y-24.3259
G1 X14.0257 Y-24.3321
G1 X13.9389 Y-24.3631
G1 X13.9206 Y-24.3702
G1 X13.9026 Y-24.3782
G1 X13.8192 Y-24.4176
G1 X13.8017 Y-24.4264
G1 X13.7846 Y-24.4361
G1 X13.7055 Y-24.4835
G1 X13.6889 Y-24.4940
G1 X13.6729 Y-24.5053
G1 X13.5988 Y-24.5603
G1 X13.5833 Y-24.5723
G1 X13.5685 Y-24.5852
G1 X13.5001 Y-24.6471
G1 X13.4859 Y-24.6606
G1 X13.4724 Y-24.6749
G1 X13.4104 Y-24.7432
G1 X13.3976 Y-24.7581
G1 X13.3855 Y-24.7735
G1 X13.3306 Y-24.8476
G1 X13.3139 Y-24.8719
G1 X13.2614 Y-24.9594
G1 X13.2517 Y-24.9764
G1 X13.2429 Y-24.9940
G1 X13.2034 Y-25.0774
G1 X13.1955 Y-25.0953
G1 X13.1884 Y-25.1136
G1 X13.1573 Y-25.2005
G1 X13.1512 Y-25.2191
G1 X13.1459 Y-25.2380
G1 X13.1235 Y-25.3275
G1 X13.1192 Y-25.3466
G1 X13.1159 Y-25.3660
G1 X13.1023 Y-25.4572
G1 X13.0999 Y-25.4767
G1 X13.0985 Y-25.4963
G1 X13.0940 Y-25.5884
G1 X13.0935 Y-25.6080
G1 X13.0940 Y-25.6276
G1 X13.0985 Y-25.7198
G1 X13.0999 Y-25.7393
G1 X13.1023 Y-25.7588
G1 X13.1159 Y-25.8501
G1 X13.1213 Y-25.8790
G1 X13.1459 Y-25.9780
G1 X13.1512 Y-25.9969
G1 X13.1573 Y-26.0156
G1 X13.1884 Y-26.1024
G1 X13.1955 Y-26.1207
G1 X13.2034 Y-26.1387
G1 X13.2429 Y-26.2221
G1 X13.2517 Y-26.2396
G1 X13.2614 Y-26.2567
G1 X13.3088 Y-26.3358
G1 X13.3248 Y-26.3605
G1 X13.3855 Y-26.4425
G1 X13.3976 Y-26.4580
G1 X13.4104 Y-26.4728
G1 X13.4724 Y-26.5412
G1 X13.4929 Y-26.5623
G1 X13.5685 Y-26.6309
G1 X13.5910 Y-26.6498
G1 X13.6808 Y-26.7165
G1 X13.6972 Y-26.7274
G1 X13.7331 Y-26.7490
G0 Z2.0000
G0 X20.5357 Y-21.0191
F1000
G1 Z-0.0500 F1000
F1000
G1 X20.4596 Y-21.0078
G1 X20.4401 Y-21.0054
G1 X20.4205 Y-21.0040
G1 X20.3396 Y-21.0000
G1 X20.3200 Y-20.9995
G1 X20.3004 Y-21.0000
G1 X20.2195 Y-21.0040
G1 X20.1999 Y-21.0054
G1 X20.1804 Y-21.0078
G1 X20.1003 Y-21.0197
G1 X20.0809 Y-21.0230
G1 X20.0618 Y-21.0273
G1 X19.9832 Y-21.0470
G1 X19.9643 Y-21.0523
G1 X19.9456 Y-21.0584
G1 X19.8693 Y-21.0857
G1 X19.8510 Y-21.0928
G1 X19.8331 Y-21.1007
G1 X19.7598 Y-21.1354
G1 X19.7423 Y-21.1442
G1 X19.7252 Y-21.1539
G1 X19.6557 Y-21.1955
G1 X19.6391 Y-21.2060
G1 X19.6231 Y-21.2173
G1 X19.5580 Y-21.2656
G1 X19.5426 Y-21.2777
G1 X19.5277 Y-21.2905
G1 X19.4677 Y-21.3449
G1 X19.4534 Y-21.3584
G1 X19.4399 Y-21.3727
G1 X19.3855 Y-21.4327
G1 X19.3727 Y-21.4476
G1 X19.3606 Y-21.4630
G1 X19.3123 Y-21.5281
G1 X19.3010 Y-21.5441
G1 X19.2905 Y-21.5607
G1 X19.2489 Y-21.6302
G1 X19.2392 Y-21.6473
G1 X19.2304 Y-21.6648
G1 X19.1957 Y-21.7381
G1 X19.1878 Y-21.7560
G1 X19.1807 Y-21.7743
G1 X19.1534 Y-21.8506
G1 X19.1473 Y-21.8693
G1 X19.1420 Y-21.8882
G1 X19.1223 Y-21.9668
G1 X19.1180 Y-21.9859
G1 X19.1147 Y-22.0053
G1 X19.1028 Y-22.0854
G1 X19.1004 Y-22.1049
G1 X19.0990 Y-22.1245
G1 X19.0950 Y-22.2054
G1 X19.0945 Y-22.2250
G1 X19.0950 Y-22.2446
G1 X19.0990 Y-22.3255
G1 X19.1004 Y-22.3451
G1 X19.1028 Y-22.3646
G1 X19.1147 Y-22.4447
G1 X19.1180 Y-22.4641
G1 X19.1223 Y-22.4832
G1 X19.1420 Y-22.5618
G1 X19.1473 Y-22.5807
G1 X19.1534 Y-22.5994
G1 X19.1807 Y-22.6757
G1 X19.1878 Y-22.6940
G1 X19.1957 Y-22.7119
G1 X19.2304 Y-22.7852
G1 X19.2392 Y-22.8027
G1 X19.2489 Y-22.8198
G1 X19.2905 Y-22.8893
G1 X19.3010 Y-22.9059
G1 X19.3123 Y-22.9219
G1 X19.3606 Y-22.9870
G1 X19.3727 Y-23.0024
G1 X19.3855 Y-23.0173
G1 X19.4399 Y-23.0773
G1 X19.4534 Y-23.0916
G1 X19.4677 Y-23.1051
G1 X19.5277 Y-23.1595
G1 X19.5426 Y-23.1723
G1 X19.5580 Y-23.1844
G1 X19.6231 Y-23.2327
G1 X19.6391 Y-23.2440
G1 X19.6557 Y-23.2545
G1 X19.7252 Y-23.2961
G1 X19.7423 Y-23.3058
G1 X19.7598 Y-23.3146
G1 X19.8331 Y-23.3493
G1 X19.8510 Y-23.3572
G1 X19.8693 Y-23.3643
G1 X19.9456 Y-23.3916
G1 X19.9643 Y-23.3977
G1 X19.9832 Y-23.4030
G1 X20.0618 Y-23.4227
G1 X20.0809 Y-23.4270
G1 X20.1003 Y-23.4303
G1 X20.1804 Y-23.4422
G1 X20.1999 Y-23.4446
G1 X20.2195 Y-23.4460
G1 X20.3004 Y-23.4500
G1 X20.3200 Y-23.4505
G1 X20.3396 Y-23.4500
G1 X20.4205 Y-23.4460
G1 X20.4401 Y-23.4446
G1 X20.4596 Y-23.4422
G1 X20.5397 Y-23.4303
G1 X20.5591 Y-23.4270
G1 X20.5782 Y-23.4227
G1 X20.6568 Y-23.4030
G1 X20.6757 Y-23.3977
G1 X20.6944 Y-23.3916
G1 X20.7707 Y-23.3643
G1 X20.7890 Y-23.3572
G1 X20.8069 Y-23.3493
G1 X20.8802 Y-23.3146
G1 X20.8977 Y-23.3058
G1 X20.9148 Y-23.2961
G1 X20.9843 Y-23.2545
G1 X21.0009 Y-23.2440
G1 X21.0169 Y-23.2327
G1 X21.0820 Y-23.1844
G1 X21.0974 Y-23.1723
G1 X21.1123 Y-23.1595
G1 X21.1723 Y-23.1051
G1 X21.1866 Y-23.0916
G1 X21.2001 Y-23.0773
G1 X21.2545 Y-23.0173
G1 X21.2673 Y-23.0024
G1 X21.2794 Y-22.9870
G1 X21.3277 Y-22.9219
G1 X21.3390 Y-22.9059
G1 X21.3495 Y-22.8893
G1 X21.3911 Y-22.8198
G1 X21.4008 Y-22.8027
G1 X21.4096 Y-22.7852
G1 X21.4443 Y-22.7119
G1 X21.4522 Y-22.6940
G1 X21.4593 Y-22.6757
G1 X21.4866 Y-22.5994
G1 X21.4927 Y-22.5807
G1 X21.4980 Y-22.5618
G1 X21.5177 Y-22.4832
G1 X21.5220 Y-22.4641
G1 X21.5253 Y-22.4447
G1 X21.5372 Y-22.3646
G1 X21.5396 Y-22.3451
G1 X21.5410 Y-22.3255
G1 X21.5454 Y-22.2348
G1 X21.5450 Y-22.2054
G1 X21.5410 Y-22.1245
G1 X21.5396 Y-22.1049
G1 X21.5372 Y-22.0854
G1 X21.5259 Y-22.0093
G1 X22.7899 Y-20.7452
G1 X22.8035 Y-20.7310
G1 X22.8232 Y-20.7092
G1 X22.8361 Y-20.6943
G1 X22.8481 Y-20.6788
G1 X22.8657 Y-20.6552
G1 X22.8763 Y-20.6401
G1 X22.9177 Y-20.6204
G1 X22.9350 Y-20.6112
G1 X23.0310 Y-20.5537
G1 X23.0552 Y-20.5370
G1 X23.1293 Y-20.4821
G1 X23.1523 Y-20.4637
G1 X23.2280 Y-20.3952
G1 X23.2422 Y-20.3817
G1 X23.2558 Y-20.3675
G1 X23.3177 Y-20.2991
G1 X23.3305 Y-20.2843
G1 X23.3426 Y-20.2688
G1 X23.3975 Y-20.1947
G1 X23.4088 Y-20.1787
G1 X23.4193 Y-20.1621
G1 X23.4668 Y-20.0830
G1 X23.4764 Y-20.0659
G1 X23.4853 Y-20.0483
G1 X23.5247 Y-19.9650
G1 X23.5327 Y-19.9470
G1 X23.5397 Y-19.9287
G1 X23.5740 Y-19.8326
G1 X23.5822 Y-19.8043
G1 X23.6046 Y-19.7148
G1 X23.6089 Y-19.6957
G1 X23.6123 Y-19.6763
G1 X23.6258 Y-19.5851
G1 X23.6282 Y-19.5656
G1 X23.6296 Y-19.5460
G1 X23.6342 Y-19.4539
G1 X23.6346 Y-19.4343
G1 X23.6342 Y-19.4147
G1 X23.6296 Y-19.3226
G1 X23.6282 Y-19.3030
G1 X23.6258 Y-19.2835
G1 X23.6107 Y-19.1826
G1 X23.6046 Y-19.1538
G1 X23.5822 Y-19.0643
G1 X23.5769 Y-19.0454
G1 X23.5708 Y-19.0267
G1 X23.5397 Y-18.9399
G1 X23.5327 Y-18.9216
G1 X23.5247 Y-18.9036
G1 X23.4853 Y-18.8203
G1 X23.4764 Y-18.8027
G1 X23.4668 Y-18.7856
G1 X23.4193 Y-18.7065
G1 X23.4088 Y-18.6899
G1 X23.3975 Y-18.6739
G1 X23.3426 Y-18.5998
G1 X23.3242 Y-18.5768
G1 X23.2558 Y-18.5011
G1 X23.2422 Y-18.4869
G1 X23.2280 Y-18.4734
G1 X23.1597 Y-18.4114
G1 X23.1448 Y-18.3986
G1 X23.1293 Y-18.3865
G1 X23.0552 Y-18.3316
G1 X23.0392 Y-18.3203
G1 X23.0226 Y-18.3098
G1 X22.9435 Y-18.2624
G1 X22.9264 Y-18.2527
G1 X22.9089 Y-18.2439
G1 X22.8255 Y-18.2044
G1 X22.8076 Y-18.1965
G1 X22.7892 Y-18.1894
G1 X22.7024 Y-18.1583
G1 X22.6838 Y-18.1522
G1 X22.6648 Y-18.1470
G1 X22.5754 Y-18.1245
G1 X22.5562 Y-18.1202
G1 X22.5369 Y-18.1169
G1 X22.4456 Y-18.1034
G1 X22.4262 Y-18.1010
G1 X22.4066 Y-18.0995
G1 X22.3145 Y-18.0950
G1 X22.2948 Y-18.0945
G1 X22.2752 Y-18.0950
G1 X22.1831 Y-18.0995
G1 X22.1635 Y-18.1010
G1 X22.1440 Y-18.1034
G1 X22.0528 Y-18.1169
G1 X22.0335 Y-18.1202
G1 X22.0143 Y-18.1245
G1 X21.9248 Y-18.1470
G1 X21.9059 Y-18.1522
G1 X21.8873 Y-18.1583
G1 X21.8004 Y-18.1894
G1 X21.7821 Y-18.1965
G1 X21.7642 Y-18.2044
G1 X21.6808 Y-18.2439
G1 X21.6633 Y-18.2527
G1 X21.6462 Y-18.2624
G1 X21.5671 Y-18.3098
G1 X21.5505 Y-18.3203
G1 X21.5344 Y-18.3316
G1 X21.4604 Y-18.3865
G1 X21.4374 Y-18.4049
G1 X21.3617 Y-18.4734
G1 X21.3475 Y-18.4869
G1 X21.3339 Y-18.5011
G1 X21.2720 Y-18.5695
G1 X21.2592 Y-18.5843
G1 X21.2471 Y-18.5998
G1 X21.1921 Y-18.6739
G1 X21.1808 Y-18.6899
G1 X21.1703 Y-18.7065
G1 X21.1229 Y-18.7856
G1 X21.1132 Y-18.8027
G1 X21.1044 Y-18.8203
G1 X21.0650 Y-18.9036
G1 X21.0570 Y-18.9216
G1 X21.0500 Y-18.9399
G1 X21.0189 Y-19.0267
G1 X21.0127 Y-19.0454
G1 X21.0075 Y-19.0643
G1 X20.9851 Y-19.1538
G1 X20.9808 Y-19.1729
G1 X20.9774 Y-19.1923
G1 X20.9639 Y-19.2835
G1 X20.9615 Y-19.3030
G1 X20.9600 Y-19.3226
G1 X20.9555 Y-19.4147
G1 X20.9550 Y-19.4343
G1 X20.9555 Y-19.4539
G1 X20.9600 Y-19.5460
G1 X20.9615 Y-19.5656
G1 X20.9639 Y-19.5851
G1 X20.9774 Y-19.6763
G1 X20.9808 Y-19.6957
G1 X20.9851 Y-19.7148
G1 X21.0075 Y-19.8043
G1 X21.0127 Y-19.8232
G1 X21.0189 Y-19.8419
G1 X21.0500 Y-19.9287
G1 X21.0570 Y-19.9470
G1 X21.0650 Y-19.9650
G1 X21.1044 Y-20.0483
G1 X21.1132 Y-20.0659
G1 X21.1229 Y-20.0830
G1 X21.1703 Y-20.1621
G1 X21.1808 Y-20.1787
G1 X21.1921 Y-20.1947
G1 X21.2471 Y-20.2688
G1 X21.2644 Y-20.2905
G1 X20.5357 Y-21.0191
G0 Z2.0000
G0 X11.2379 Y-38.8345
F1000
G1 Z-0.0500 F1000
F1000
G1 X11.2106 Y-38.8716
G1 X11.1996 Y-38.8879
G1 X11.1421 Y-38.9838
G1 X11.1286 Y-39.0100
G1 X11.0851 Y-39.1023
G1 X11.0741 Y-39.1296
G1 X11.0430 Y-39.2164
G1 X11.0369 Y-39.2351
G1 X11.0317 Y-39.2540
G1 X11.0092 Y-39.3435
G1 X11.0031 Y-39.3723
G1 X10.9867 Y-39.4829
G1 X10.9842 Y-39.5123
G1 X10.9797 Y-39.6044
G1 X10.9792 Y-39.6240
G1 X10.9797 Y-39.6436
G1 X10.9842 Y-39.7357
G1 X10.9857 Y-39.7553
G1 X10.9881 Y-39.7748
G1 X11.0016 Y-39.8660
G1 X11.0049 Y-39.8854
G1 X11.0092 Y-39.9045
G1 X11.0317 Y-39.9940
G1 X11.0399 Y-40.0223
G1 X11.0775 Y-40.1276
G1 X11.0891 Y-40.1547
G1 X11.1286 Y-40.2380
G1 X11.1374 Y-40.2556
G1 X11.1471 Y-40.2727
G1 X11.1945 Y-40.3518
G1 X11.2050 Y-40.3684
G1 X11.2163 Y-40.3844
G1 X11.2712 Y-40.4585
G1 X11.2833 Y-40.4740
G1 X11.2961 Y-40.4888
G1 X11.3581 Y-40.5572
G1 X11.3716 Y-40.5714
G1 X11.3858 Y-40.5849
G1 X11.4542 Y-40.6469
G1 X11.4690 Y-40.6597
G1 X11.4845 Y-40.6718
G1 X11.5586 Y-40.7267
G1 X11.5746 Y-40.7380
G1 X11.5912 Y-40.7485
G1 X11.6703 Y-40.7959
G1 X11.6874 Y-40.8056
G1 X11.7050 Y-40.8144
G1 X11.7883 Y-40.8539
G1 X11.8063 Y-40.8618
G1 X11.8246 Y-40.8689
G1 X11.9114 Y-40.9000
G1 X11.9301 Y-40.9061
G1 X11.9490 Y-40.9113
G1 X12.0385 Y-40.9338
G1 X12.0576 Y-40.9381
G1 X12.0770 Y-40.9414
G1 X12.1682 Y-40.9549
G1 X12.1877 Y-40.9573
G1 X12.2073 Y-40.9588
G1 X12.2994 Y-40.9633
G1 X12.3190 Y-40.9638
G1 X12.3386 Y-40.9633
G1 X12.4307 Y-40.9588
G1 X12.4503 Y-40.9573
G1 X12.4698 Y-40.9549
G1 X12.5707 Y-40.9399
G1 X12.5995 Y-40.9338
G1 X12.6890 Y-40.9113
G1 X12.7079 Y-40.9061
G1 X12.7266 Y-40.9000
G1 X12.8226 Y-40.8655
G1 X12.8497 Y-40.8539
G1 X12.9330 Y-40.8144
G1 X12.9506 Y-40.8056
G1 X12.9677 Y-40.7959
G1 X13.0468 Y-40.7485
G1 X13.0634 Y-40.7380
G1 X13.0794 Y-40.7267
G1 X13.1535 Y-40.6718
G1 X13.1765 Y-40.6534
G1 X13.2522 Y-40.5849
G1 X13.2664 Y-40.5714
G1 X13.2799 Y-40.5572
G1 X13.3484 Y-40.4815
G1 X13.3668 Y-40.4585
G1 X13.4274 Y-40.3764
G1 X13.4384 Y-40.3601
G1 X13.4601 Y-40.3241
G1 X16.8910 Y-40.3241
G1 X16.9106 Y-40.3237
G1 X16.9400 Y-40.3222
G1 X16.9694 Y-40.3197
G1 X17.0082 Y-40.3141
G1 X17.0276 Y-40.3107
G1 X17.0467 Y-40.3064
G1 X17.0753 Y-40.2992
G1 X17.1036 Y-40.2910
G1 X17.1406 Y-40.2779
G1 X17.1589 Y-40.2709
G1 X17.1769 Y-40.2629
G1 X17.2035 Y-40.2503
G1 X17.2296 Y-40.2367
G1 X17.2634 Y-40.2167
G1 X17.2800 Y-40.2062
G1 X17.2960 Y-40.1948
G1 X17.3197 Y-40.1773
G1 X17.3427 Y-40.1589
G1 X17.3791 Y-40.1259
G1 X20.1601 Y-37.3451
G1 X20.1963 Y-37.3503
G1 X20.2159 Y-37.3522
G1 X20.3102 Y-37.3569
G1 X20.3396 Y-37.3565
G1 X20.4241 Y-37.3522
G1 X20.4534 Y-37.3490
G1 X20.5274 Y-37.3380
G1 X20.5467 Y-37.3347
G1 X20.5659 Y-37.3304
G1 X20.6384 Y-37.3122
G1 X20.6667 Y-37.3040
G1 X20.7556 Y-37.2722
G1 X20.7826 Y-37.2606
G1 X20.8502 Y-37.2286
G1 X20.8678 Y-37.2198
G1 X20.8848 Y-37.2101
G1 X20.9490 Y-37.1717
G1 X20.9737 Y-37.1556
G1 X21.0495 Y-37.0994
G1 X21.0720 Y-37.0804
G1 X21.1346 Y-37.0235
G1 X21.1552 Y-37.0024
G1 X21.2054 Y-36.9470
G1 X21.2182 Y-36.9322
G1 X21.2303 Y-36.9167
G1 X21.2749 Y-36.8566
G1 X21.2862 Y-36.8406
G1 X21.2967 Y-36.8240
G1 X21.3351 Y-36.7598
G1 X21.3448 Y-36.7428
G1 X21.3536 Y-36.7252
G1 X21.3856 Y-36.6576
G1 X21.3935 Y-36.6397
G1 X21.4006 Y-36.6214
G1 X21.4258 Y-36.5510
G1 X21.4320 Y-36.5323
G1 X21.4372 Y-36.5134
G1 X21.4554 Y-36.4409
G1 X21.4597 Y-36.4217
G1 X21.4630 Y-36.4024
G1 X21.4740 Y-36.3284
G1 X21.4764 Y-36.3089
G1 X21.4778 Y-36.2893
G1 X21.4819 Y-36.2048
G1 X21.4815 Y-36.1754
G1 X21.4778 Y-36.1007
G1 X21.4764 Y-36.0811
G1 X21.4740 Y-36.0616
G1 X21.4630 Y-35.9876
G1 X21.4597 Y-35.9683
G1 X21.4554 Y-35.9491
G1 X21.4372 Y-35.8766
G1 X21.4320 Y-35.8577
G1 X21.4258 Y-35.8390
G1 X21.4006 Y-35.7686
G1 X21.3935 Y-35.7503
G1 X21.3856 Y-35.7324
G1 X21.3536 Y-35.6648
G1 X21.3448 Y-35.6472
G1 X21.3351 Y-35.6302
G1 X21.2967 Y-35.5660
G1 X21.2862 Y-35.5494
G1 X21.2749 Y-35.5334
G1 X21.2303 Y-35.4733
G1 X21.2182 Y-35.4578
G1 X21.2054 Y-35.4430
G1 X21.1552 Y-35.3876
G1 X21.1417 Y-35.3733
G1 X21.1274 Y-35.3598
G1 X21.0720 Y-35.3096
G1 X21.0572 Y-35.2968
G1 X21.0417 Y-35.2847
G1 X20.9816 Y-35.2401
G1 X20.9656 Y-35.2288
G1 X20.9490 Y-35.2183
G1 X20.8848 Y-35.1799
G1 X20.8678 Y-35.1702
G1 X20.8502 Y-35.1614
G1 X20.7826 Y-35.1294
G1 X20.7647 Y-35.1215
G1 X20.7464 Y-35.1144
G1 X20.6760 Y-35.0892
G1 X20.6573 Y-35.0830
G1 X20.6384 Y-35.0778
G1 X20.5659 Y-35.0596
G1 X20.5467 Y-35.0553
G1 X20.5274 Y-35.0520
G1 X20.4534 Y-35.0410
G1 X20.4339 Y-35.0386
G1 X20.4143 Y-35.0372
G1 X20.3298 Y-35.0331
G1 X20.3004 Y-35.0335
G1 X20.2257 Y-35.0372
G1 X20.2061 Y-35.0386
G1 X20.1866 Y-35.0410
G1 X20.1126 Y-35.0520
G1 X20.0933 Y-35.0553
G1 X20.0741 Y-35.0596
G1 X20.0016 Y-35.0778
G1 X19.9827 Y-35.0830
G1 X19.9640 Y-35.0892
G1 X19.8936 Y-35.1144
G1 X19.8753 Y-35.1215
G1 X19.8574 Y-35.1294
G1 X19.7898 Y-35.1614
G1 X19.7636 Y-35.1749
G1 X19.6910 Y-35.2183
G1 X19.6744 Y-35.2288
G1 X19.6584 Y-35.2401
G1 X19.5983 Y-35.2847
G1 X19.5828 Y-35.2968
G1 X19.5680 Y-35.3096
G1 X19.5126 Y-35.3598
G1 X19.4983 Y-35.3733
G1 X19.4848 Y-35.3876
G1 X19.4346 Y-35.4430
G1 X19.4218 Y-35.4578
G1 X19.4097 Y-35.4733
G1 X19.3651 Y-35.5334
G1 X19.3538 Y-35.5494
G1 X19.3433 Y-35.5660
G1 X19.3049 Y-35.6302
G1 X19.2907 Y-35.6560
G1 X19.2544 Y-35.7324
G1 X19.2465 Y-35.7503
G1 X19.2394 Y-35.7686
G1 X19.2142 Y-35.8390
G1 X19.2080 Y-35.8577
G1 X19.2028 Y-35.8766
G1 X19.1846 Y-35.9491
G1 X19.1785 Y-35.9780
G1 X19.1660 Y-36.0616
G1 X19.1636 Y-36.0811
G1 X19.1622 Y-36.1007
G1 X19.1581 Y-36.1852
G1 X19.1585 Y-36.2146
G1 X19.1628 Y-36.2991
G1 X19.1647 Y-36.3187
G1 X19.1699 Y-36.3549
G1 X16.6010 Y-38.9239
G1 X13.4601 Y-38.9238
G1 X13.4384 Y-38.8879
G1 X13.4274 Y-38.8716
G1 X13.3608 Y-38.7817
G1 X13.3419 Y-38.7592
G1 X13.2732 Y-38.6836
G1 X13.2522 Y-38.6631
G1 X13.1838 Y-38.6011
G1 X13.1690 Y-38.5883
G1 X13.1535 Y-38.5762
G1 X13.0794 Y-38.5213
G1 X13.0634 Y-38.5100
G1 X13.0468 Y-38.4995
G1 X12.9677 Y-38.4521
G1 X12.9506 Y-38.4424
G1 X12.9330 Y-38.4336
G1 X12.8407 Y-38.3901
G1 X12.8134 Y-38.3791
G1 X12.7173 Y-38.3449
G1 X12.6985 Y-38.3392
G1 X12.6381 Y-38.3239
G1 X12.6381 Y-18.5780
G1 X14.7219 Y-16.4942
G1 X15.9216 Y-16.4943
G1 X15.9433 Y-16.5303
G1 X15.9543 Y-16.5467
G1 X16.0149 Y-16.6287
G1 X16.0333 Y-16.6517
G1 X16.1018 Y-16.7274
G1 X16.1153 Y-16.7416
G1 X16.1295 Y-16.7551
G1 X16.2052 Y-16.8236
G1 X16.2282 Y-16.8420
G1 X16.3023 Y-16.8969
G1 X16.3183 Y-16.9082
G1 X16.3349 Y-16.9187
G1 X16.4140 Y-16.9661
G1 X16.4311 Y-16.9758
G1 X16.4487 Y-16.9846
G1 X16.5410 Y-17.0282
G1 X16.5683 Y-17.0391
G1 X16.6551 Y-17.0702
G1 X16.6738 Y-17.0763
G1 X16.6927 Y-17.0816
G1 X16.7822 Y-17.1040
G1 X16.8013 Y-17.1083
G1 X16.8207 Y-17.1116
G1 X16.9119 Y-17.1252
G1 X16.9314 Y-17.1276
G1 X16.9510 Y-17.1290
G1 X17.0431 Y-17.1335
G1 X17.0627 Y-17.1340
G1 X17.0823 Y-17.1335
G1 X17.1744 Y-17.1290
G1 X17.1940 Y-17.1276
G1 X17.2135 Y-17.1252
G1 X17.3047 Y-17.1116
G1 X17.3241 Y-17.1083
G1 X17.3432 Y-17.1040
G1 X17.4327 Y-17.0816
G1 X17.4516 Y-17.0763
G1 X17.4703 Y-17.0702
G1 X17.5571 Y-17.0391
G1 X17.5754 Y-17.0320
G1 X17.5934 Y-17.0241
G1 X17.6856 Y-16.9803
G1 X17.7114 Y-16.9661
G1 X17.7905 Y-16.9187
G1 X17.8071 Y-16.9082
G1 X17.8231 Y-16.8969
G1 X17.8972 Y-16.8420
G1 X17.9127 Y-16.8299
G1 X17.9275 Y-16.8171
G1 X17.9959 Y-16.7551
G1 X18.0101 Y-16.7416
G1 X18.0236 Y-16.7274
G1 X18.0856 Y-16.6590
G1 X18.0984 Y-16.6442
G1 X18.1105 Y-16.6287
G1 X18.1654 Y-16.5546
G1 X18.1767 Y-16.5386
G1 X18.1872 Y-16.5220
G1 X18.2346 Y-16.4429
G1 X18.2443 Y-16.4258
G1 X18.2531 Y-16.4083
G1 X18.2926 Y-16.3249
G1 X18.3005 Y-16.3069
G1 X18.3076 Y-16.2886
G1 X18.3387 Y-16.2018
G1 X18.3475 Y-16.1737
G1 X18.3725 Y-16.0748
G1 X18.3768 Y-16.0556
G1 X18.3801 Y-16.0363
G1 X18.3936 Y-15.9450
G1 X18.3960 Y-15.9255
G1 X18.3975 Y-15.9060
G1 X18.4020 Y-15.8138
G1 X18.4024 Y-15.7844
G1 X18.3975 Y-15.6825
G1 X18.3960 Y-15.6629
G1 X18.3936 Y-15.6434
G1 X18.3801 Y-15.5522
G1 X18.3768 Y-15.5328
G1 X18.3725 Y-15.5137
G1 X18.3500 Y-15.4242
G1 X18.3448 Y-15.4053
G1 X18.3387 Y-15.3867
G1 X18.3076 Y-15.2998
G1 X18.3005 Y-15.2815
G1 X18.2926 Y-15.2636
G1 X18.2488 Y-15.1714
G1 X18.2346 Y-15.1456
G1 X18.1872 Y-15.0665
G1 X18.1767 Y-15.0499
G1 X18.1654 Y-15.0338
G1 X18.1105 Y-14.9597
G1 X18.0984 Y-14.9443
G1 X18.0856 Y-14.9294
G1 X18.0236 Y-14.8611
G1 X18.0101 Y-14.8468
G1 X17.9959 Y-14.8333
G1 X17.9275 Y-14.7714
G1 X17.9127 Y-14.7585
G1 X17.8972 Y-14.7465
G1 X17.8231 Y-14.6915
G1 X17.8071 Y-14.6802
G1 X17.7905 Y-14.6697
G1 X17.7114 Y-14.6223
G1 X17.6856 Y-14.6081
G1 X17.5934 Y-14.5644
G1 X17.5754 Y-14.5564
G1 X17.5571 Y-14.5493
G1 X17.4703 Y-14.5183
G1 X17.4516 Y-14.5121
G1 X17.4327 Y-14.5069
G1 X17.3432 Y-14.4845
G1 X17.3241 Y-14.4802
G1 X17.3047 Y-14.4768
G1 X17.2135 Y-14.4633
G1 X17.1940 Y-14.4609
G1 X17.1744 Y-14.4594
G1 X17.0823 Y-14.4549
G1 X17.0627 Y-14.4544
G1 X17.0431 Y-14.4549
G1 X16.9510 Y-14.4594
G1 X16.9314 Y-14.4609
G1 X16.9119 Y-14.4633
G1 X16.8207 Y-14.4768
G1 X16.8013 Y-14.4802
G1 X16.7822 Y-14.4845
G1 X16.6927 Y-14.5069
G1 X16.6738 Y-14.5121
G1 X16.6551 Y-14.5183
G1 X16.5683 Y-14.5493
G1 X16.5410 Y-14.5603
G1 X16.4487 Y-14.6038
G1 X16.4311 Y-14.6126
G1 X16.4140 Y-14.6223
G1 X16.3349 Y-14.6697
G1 X16.3183 Y-14.6802
G1 X16.3023 Y-14.6915
G1 X16.2282 Y-14.7465
G1 X16.2052 Y-14.7649
G1 X16.1295 Y-14.8333
G1 X16.1153 Y-14.8468
G1 X16.1018 Y-14.8611
G1 X16.0333 Y-14.9367
G1 X16.0149 Y-14.9597
G1 X15.9543 Y-15.0418
G1 X15.9433 Y-15.0581
G1 X15.9217 Y-15.0940
G1 X15.0511 Y-15.0939
G1 X15.0511 Y-11.5930
G1 X16.0712 Y-10.5729
G1 X16.1120 Y-10.5830
G1 X16.1313 Y-10.5869
G1 X16.2419 Y-10.6033
G1 X16.2713 Y-10.6058
G1 X16.3634 Y-10.6103
G1 X16.3928 Y-10.6107
G1 X16.4947 Y-10.6058
G1 X16.5143 Y-10.6043
G1 X16.5338 Y-10.6019
G1 X16.6250 Y-10.5884
G1 X16.6444 Y-10.5851
G1 X16.6635 Y-10.5808
G1 X16.7530 Y-10.5583
G1 X16.7813 Y-10.5501
G1 X16.8774 Y-10.5159
G1 X16.8957 Y-10.5088
G1 X16.9137 Y-10.5009
G1 X16.9970 Y-10.4614
G1 X17.0146 Y-10.4526
G1 X17.0317 Y-10.4429
G1 X17.1108 Y-10.3955
G1 X17.1274 Y-10.3850
G1 X17.1434 Y-10.3737
G1 X17.2175 Y-10.3188
G1 X17.2330 Y-10.3067
G1 X17.2478 Y-10.2939
G1 X17.3162 Y-10.2319
G1 X17.3304 Y-10.2184
G1 X17.3439 Y-10.2042
G1 X17.4059 Y-10.1358
G1 X17.4187 Y-10.1210
G1 X17.4308 Y-10.1055
G1 X17.4857 Y-10.0314
G1 X17.4970 Y-10.0154
G1 X17.5075 Y-9.9988
G1 X17.5549 Y-9.9197
G1 X17.5646 Y-9.9026
G1 X17.5734 Y-9.8850
G1 X17.6129 Y-9.8017
G1 X17.6208 Y-9.7837
G1 X17.6279 Y-9.7654
G1 X17.6590 Y-9.6786
G1 X17.6651 Y-9.6599
G1 X17.6703 Y-9.6410
G1 X17.6928 Y-9.5515
G1 X17.6971 Y-9.5324
G1 X17.7004 Y-9.5130
G1 X17.7153 Y-9.4121
G1 X17.7178 Y-9.3827
G1 X17.7223 Y-9.2906
G1 X17.7228 Y-9.2710
G1 X17.7223 Y-9.2514
G1 X17.7178 Y-9.1593
G1 X17.7163 Y-9.1397
G1 X17.7139 Y-9.1202
G1 X17.7004 Y-9.0290
G1 X17.6971 Y-9.0096
G1 X17.6928 Y-8.9905
G1 X17.6703 Y-8.9010
G1 X17.6651 Y-8.8821
G1 X17.6590 Y-8.8634
G1 X17.6279 Y-8.7766
G1 X17.6169 Y-8.7493
G1 X17.5734 Y-8.6570
G1 X17.5646 Y-8.6394
G1 X17.5549 Y-8.6223
G1 X17.5075 Y-8.5432
G1 X17.4914 Y-8.5186
G1 X17.4308 Y-8.4365
G1 X17.4187 Y-8.4210
G1 X17.4059 Y-8.4062
G1 X17.3439 Y-8.3378
G1 X17.3304 Y-8.3236
G1 X17.3162 Y-8.3101
G1 X17.2478 Y-8.2481
G1 X17.2330 Y-8.2353
G1 X17.2175 Y-8.2232
G1 X17.1434 Y-8.1683
G1 X17.1274 Y-8.1570
G1 X17.1108 Y-8.1465
G1 X17.0317 Y-8.0991
G1 X17.0146 Y-8.0894
G1 X16.9970 Y-8.0806
G1 X16.9137 Y-8.0411
G1 X16.8866 Y-8.0295
G1 X16.7906 Y-7.9950
G1 X16.7719 Y-7.9889
G1 X16.7530 Y-7.9837
G1 X16.6635 Y-7.9612
G1 X16.6444 Y-7.9569
G1 X16.6250 Y-7.9536
G1 X16.5338 Y-7.9401
G1 X16.5045 Y-7.9368
G1 X16.4026 Y-7.9317
G1 X16.3830 Y-7.9312
G1 X16.3634 Y-7.9317
G1 X16.2615 Y-7.9368
G1 X16.2322 Y-7.9401
G1 X16.1313 Y-7.9551
G1 X16.1120 Y-7.9590
G1 X16.0712 Y-7.9691
G1 X14.0841 Y-5.9819
G1 X14.0699 Y-5.9684
G1 X14.0480 Y-5.9486
G1 X14.0255 Y-5.9296
G1 X13.9861 Y-5.9004
G1 X13.9614 Y-5.8843
G1 X13.9276 Y-5.8643
G1 X13.9015 Y-5.8507
G1 X13.8749 Y-5.8381
G1 X13.8569 Y-5.8301
G1 X13.8386 Y-5.8231
G1 X13.8109 Y-5.8132
G1 X13.7828 Y-5.8043
G1 X13.7352 Y-5.7923
G1 X13.7159 Y-5.7885
G1 X13.6674 Y-5.7813
G1 X13.6380 Y-5.7788
G1 X13.6086 Y-5.7773
G1 X13.5890 Y-5.7769
G1 X13.0791 Y-5.7768
G1 X13.0574 Y-5.7409
G1 X13.0464 Y-5.7246
G1 X12.9798 Y-5.6347
G1 X12.9609 Y-5.6122
G1 X12.8989 Y-5.5438
G1 X12.8784 Y-5.5228
G1 X12.7955 Y-5.4476
G1 X12.7725 Y-5.4292
G1 X12.6984 Y-5.3743
G1 X12.6824 Y-5.3630
G1 X12.6658 Y-5.3525
G1 X12.5782 Y-5.3001
G1 X12.5520 Y-5.2866
G1 X12.4687 Y-5.2471
G1 X12.4507 Y-5.2392
G1 X12.4324 Y-5.2321
G1 X12.3456 Y-5.2010
G1 X12.3269 Y-5.1949
G1 X12.3080 Y-5.1897
G1 X12.2185 Y-5.1672
G1 X12.1994 Y-5.1629
G1 X12.1800 Y-5.1596
G1 X12.0888 Y-5.1461
G1 X12.0595 Y-5.1428
G1 X11.9478 Y-5.1373
G1 X11.9184 Y-5.1377
G1 X11.8263 Y-5.1422
G1 X11.8067 Y-5.1437
G1 X11.7872 Y-5.1461
G1 X11.6960 Y-5.1596
G1 X11.6766 Y-5.1629
G1 X11.6575 Y-5.1672
G1 X11.5680 Y-5.1897
G1 X11.5491 Y-5.1949
G1 X11.5304 Y-5.2010
G1 X11.4436 Y-5.2321
G1 X11.4253 Y-5.2392
G1 X11.4073 Y-5.2471
G1 X11.3240 Y-5.2866
G1 X11.3064 Y-5.2954
G1 X11.2893 Y-5.3051
G1 X11.2102 Y-5.3525
G1 X11.1936 Y-5.3630
G1 X11.1776 Y-5.3743
G1 X11.1035 Y-5.4292
G1 X11.0880 Y-5.4413
G1 X11.0732 Y-5.4541
G1 X11.0048 Y-5.5161
G1 X10.9906 Y-5.5296
G1 X10.9771 Y-5.5438
G1 X10.9151 Y-5.6122
G1 X10.9023 Y-5.6270
G1 X10.8902 Y-5.6425
G1 X10.8353 Y-5.7166
G1 X10.8240 Y-5.7326
G1 X10.8135 Y-5.7492
G1 X10.7661 Y-5.8283
G1 X10.7564 Y-5.8454
G1 X10.7476 Y-5.8630
G1 X10.7081 Y-5.9463
G1 X10.7002 Y-5.9643
G1 X10.6931 Y-5.9826
G1 X10.6620 Y-6.0694
G1 X10.6559 Y-6.0881
G1 X10.6507 Y-6.1070
G1 X10.6282 Y-6.1965
G1 X10.6239 Y-6.2156
G1 X10.6206 Y-6.2350
G1 X10.6071 Y-6.3262
G1 X10.6047 Y-6.3457
G1 X10.6032 Y-6.3653
G1 X10.5987 Y-6.4574
G1 X10.5982 Y-6.4770
G1 X10.5987 Y-6.4966
G1 X10.6032 Y-6.5887
G1 X10.6047 Y-6.6083
G1 X10.6071 Y-6.6278
G1 X10.6206 Y-6.7190
G1 X10.6239 Y-6.7384
G1 X10.6282 Y-6.7575
G1 X10.6507 Y-6.8470
G1 X10.6559 Y-6.8659
G1 X10.6620 Y-6.8846
G1 X10.6931 Y-6.9714
G1 X10.7002 Y-6.9897
G1 X10.7081 Y-7.0077
G1 X10.7476 Y-7.0910
G1 X10.7564 Y-7.1086
G1 X10.7661 Y-7.1257
G1 X10.8135 Y-7.2048
G1 X10.8296 Y-7.2294
G1 X10.8962 Y-7.3193
G1 X10.9151 Y-7.3418
G1 X10.9771 Y-7.4102
G1 X10.9906 Y-7.4244
G1 X11.0048 Y-7.4379
G1 X11.0732 Y-7.4999
G1 X11.0880 Y-7.5127
G1 X11.1035 Y-7.5248
G1 X11.1776 Y-7.5797
G1 X11.1936 Y-7.5910
G1 X11.2102 Y-7.6015
G1 X11.2893 Y-7.6489
G1 X11.3064 Y-7.6586
G1 X11.3240 Y-7.6674
G1 X11.4073 Y-7.7069
G1 X11.4253 Y-7.7148
G1 X11.4436 Y-7.7219
G1 X11.5304 Y-7.7530
G1 X11.5491 Y-7.7591
G1 X11.5680 Y-7.7643
G1 X11.6575 Y-7.7868
G1 X11.6766 Y-7.7911
G1 X11.6960 Y-7.7944
G1 X11.7872 Y-7.8079
G1 X11.8067 Y-7.8103
G1 X11.8263 Y-7.8118
G1 X11.9184 Y-7.8163
G1 X11.9478 Y-7.8167
G1 X12.0497 Y-7.8118
G1 X12.0693 Y-7.8103
G1 X12.0888 Y-7.8079
G1 X12.1800 Y-7.7944
G1 X12.1994 Y-7.7911
G1 X12.2185 Y-7.7868
G1 X12.3080 Y-7.7643
G1 X12.3269 Y-7.7591
G1 X12.3456 Y-7.7530
G1 X12.4324 Y-7.7219
G1 X12.4597 Y-7.7109
G1 X12.5520 Y-7.6674
G1 X12.5696 Y-7.6586
G1 X12.5867 Y-7.6489
G1 X12.6741 Y-7.5964
G1 X12.6984 Y-7.5797
G1 X12.7725 Y-7.5248
G1 X12.7880 Y-7.5127
G1 X12.8028 Y-7.4999
G1 X12.8784 Y-7.4312
G1 X12.8989 Y-7.4102
G1 X12.9609 Y-7.3418
G1 X12.9798 Y-7.3193
G1 X13.0464 Y-7.2294
G1 X13.0574 Y-7.2131
G1 X13.0791 Y-7.1771
G1 X13.2990 Y-7.1771
G1 X15.0811 Y-8.9592
G1 X15.0710 Y-9.0000
G1 X15.0671 Y-9.0193
G1 X15.0507 Y-9.1299
G1 X15.0482 Y-9.1593
G1 X15.0437 Y-9.2514
G1 X15.0432 Y-9.2710
G1 X15.0437 Y-9.2906
G1 X15.0482 Y-9.3827
G1 X15.0507 Y-9.4121
G1 X15.0671 Y-9.5227
G1 X15.0710 Y-9.5420
G1 X15.0811 Y-9.5828
G1 X13.8559 Y-10.8079
G1 X13.8424 Y-10.8221
G1 X13.8226 Y-10.8440
G1 X13.8036 Y-10.8665
G1 X13.7802 Y-10.8980
G1 X13.7688 Y-10.9140
G1 X13.7583 Y-10.9306
G1 X13.7432 Y-10.9559
G1 X13.7290 Y-10.9817
G1 X13.7080 Y-11.0260
G1 X13.6971 Y-11.0534
G1 X13.6872 Y-11.0811
G1 X13.6810 Y-11.0998
G1 X13.6758 Y-11.1187
G1 X13.6686 Y-11.1473
G1 X13.6625 Y-11.1761
G1 X13.6553 Y-11.2246
G1 X13.6528 Y-11.2540
G1 X13.6513 Y-11.2834
G1 X13.6509 Y-11.3030
G1 X13.6509 Y-15.5850
G1 X11.4429 Y-17.7929
G1 X11.4294 Y-17.8071
G1 X11.4031 Y-17.8363
G1 X11.3906 Y-17.8515
G1 X11.3672 Y-17.8830
G1 X11.3558 Y-17.8990
G1 X11.3453 Y-17.9156
G1 X11.3253 Y-17.9494
G1 X11.3160 Y-17.9667
G1 X11.2991 Y-18.0021
G1 X11.2911 Y-18.0201
G1 X11.2841 Y-18.0384
G1 X11.2710 Y-18.0754
G1 X11.2653 Y-18.0942
G1 X11.2556 Y-18.1323
G1 X11.2513 Y-18.1514
G1 X11.2479 Y-18.1708
G1 X11.2423 Y-18.2096
G1 X11.2398 Y-18.2390
G1 X11.2383 Y-18.2684
G1 X11.2379 Y-18.2880
G1 X11.2379 Y-38.8345
G0 Z2.0000
G0 X0.8859 Y-39.2084
F1000
G1 Z-0.0500 F1000
F1000
G1 X0.8799 Y-39.2257
G1 X0.8742 Y-39.2445
G1 X0.8470 Y-39.3530
G1 X0.8416 Y-39.3820
G1 X0.8267 Y-39.4829
G1 X0.8242 Y-39.5123
G1 X0.8197 Y-39.6044
G1 X0.8192 Y-39.6240
G1 X0.8197 Y-39.6436
G1 X0.8248 Y-39.7455
G1 X0.8281 Y-39.7748
G1 X0.8416 Y-39.8660
G1 X0.8449 Y-39.8854
G1 X0.8492 Y-39.9045
G1 X0.8717 Y-39.9940
G1 X0.8769 Y-40.0129
G1 X0.8830 Y-40.0316
G1 X0.9141 Y-40.1184
G1 X0.9212 Y-40.1367
G1 X0.9291 Y-40.1547
G1 X0.9729 Y-40.2469
G1 X0.9871 Y-40.2727
G1 X1.0345 Y-40.3518
G1 X1.0450 Y-40.3684
G1 X1.0563 Y-40.3844
G1 X1.1112 Y-40.4585
G1 X1.1233 Y-40.4740
G1 X1.1361 Y-40.4888
G1 X1.1981 Y-40.5572
G1 X1.2116 Y-40.5714
G1 X1.2258 Y-40.5849
G1 X1.2942 Y-40.6469
G1 X1.3090 Y-40.6597
G1 X1.3245 Y-40.6718
G1 X1.3986 Y-40.7267
G1 X1.4146 Y-40.7380
G1 X1.4312 Y-40.7485
G1 X1.5103 Y-40.7959
G1 X1.5274 Y-40.8056
G1 X1.5450 Y-40.8144
G1 X1.6283 Y-40.8539
G1 X1.6463 Y-40.8618
G1 X1.6646 Y-40.8689
G1 X1.7607 Y-40.9031
G1 X1.7890 Y-40.9113
G1 X1.8785 Y-40.9338
G1 X1.8976 Y-40.9381
G1 X1.9170 Y-40.9414
G1 X2.0082 Y-40.9549
G1 X2.0277 Y-40.9573
G1 X2.0473 Y-40.9588
G1 X2.1394 Y-40.9633
G1 X2.1590 Y-40.9638
G1 X2.1786 Y-40.9633
G1 X2.2707 Y-40.9588
G1 X2.2903 Y-40.9573
G1 X2.3098 Y-40.9549
G1 X2.4010 Y-40.9414
G1 X2.4204 Y-40.9381
G1 X2.4395 Y-40.9338
G1 X2.5290 Y-40.9113
G1 X2.5479 Y-40.9061
G1 X2.5666 Y-40.9000
G1 X2.6534 Y-40.8689
G1 X2.6717 Y-40.8618
G1 X2.6897 Y-40.8539
G1 X2.7730 Y-40.8144
G1 X2.7906 Y-40.8056
G1 X2.8077 Y-40.7959
G1 X2.8868 Y-40.7485
G1 X2.9034 Y-40.7380
G1 X2.9194 Y-40.7267
G1 X2.9935 Y-40.6718
G1 X3.0090 Y-40.6597
G1 X3.0238 Y-40.6469
G1 X3.0922 Y-40.5849
G1 X3.1064 Y-40.5714
G1 X3.1199 Y-40.5572
G1 X3.1819 Y-40.4888
G1 X3.1947 Y-40.4740
G1 X3.2068 Y-40.4585
G1 X3.2617 Y-40.3844
G1 X3.2730 Y-40.3684
G1 X3.2835 Y-40.3518
G1 X3.3309 Y-40.2727
G1 X3.3406 Y-40.2556
G1 X3.3494 Y-40.2380
G1 X3.3889 Y-40.1547
G1 X3.3968 Y-40.1367
G1 X3.4039 Y-40.1184
G1 X3.4381 Y-40.0223
G1 X3.4463 Y-39.9940
G1 X3.4688 Y-39.9045
G1 X3.4731 Y-39.8854
G1 X3.4764 Y-39.8660
G1 X3.4899 Y-39.7748
G1 X3.4923 Y-39.7553
G1 X3.4938 Y-39.7357
G1 X3.4983 Y-39.6436
G1 X3.4988 Y-39.6240
G1 X3.4983 Y-39.6044
G1 X3.4938 Y-39.5123
G1 X3.4923 Y-39.4927
G1 X3.4899 Y-39.4732
G1 X3.4764 Y-39.3820
G1 X3.4731 Y-39.3626
G1 X3.4688 Y-39.3435
G1 X3.4463 Y-39.2540
G1 X3.4381 Y-39.2257
G1 X3.4039 Y-39.1296
G1 X3.3968 Y-39.1113
G1 X3.3889 Y-39.0933
G1 X3.3494 Y-39.0100
G1 X3.3406 Y-38.9924
G1 X3.3309 Y-38.9753
G1 X3.2835 Y-38.8962
G1 X3.2730 Y-38.8796
G1 X3.2617 Y-38.8636
G1 X3.2068 Y-38.7895
G1 X3.1947 Y-38.7740
G1 X3.1819 Y-38.7592
G1 X3.1199 Y-38.6908
G1 X3.1064 Y-38.6766
G1 X3.0922 Y-38.6631
G1 X3.0165 Y-38.5946
G1 X2.9935 Y-38.5762
G1 X2.9194 Y-38.5213
G1 X2.9034 Y-38.5100
G1 X2.8868 Y-38.4995
G1 X2.8077 Y-38.4521
G1 X2.7906 Y-38.4424
G1 X2.7730 Y-38.4336
G1 X2.6897 Y-38.3941
G1 X2.6717 Y-38.3862
G1 X2.6534 Y-38.3791
G1 X2.5666 Y-38.3480
G1 X2.5479 Y-38.3419
G1 X2.5290 Y-38.3367
G1 X2.4395 Y-38.3142
G1 X2.4107 Y-38.3081
G1 X2.3001 Y-38.2917
G1 X2.2805 Y-38.2898
G1 X2.2620 Y-38.2888
G1 X2.2620 Y-18.1872
G1 X5.2956 Y-15.1535
G1 X5.3518 Y-15.1618
G1 X5.3713 Y-15.1642
G1 X5.3909 Y-15.1657
G1 X5.4693 Y-15.1695
G1 X5.4988 Y-15.1699
G1 X5.5968 Y-15.1651
G1 X5.6260 Y-15.1618
G1 X5.7037 Y-15.1503
G1 X5.7230 Y-15.1469
G1 X5.7422 Y-15.1426
G1 X5.8184 Y-15.1236
G1 X5.8466 Y-15.1154
G1 X5.9298 Y-15.0857
G1 X5.9572 Y-15.0748
G1 X6.0459 Y-15.0328
G1 X6.0717 Y-15.0186
G1 X6.1390 Y-14.9783
G1 X6.1556 Y-14.9678
G1 X6.1717 Y-14.9565
G1 X6.2347 Y-14.9097
G1 X6.2577 Y-14.8913
G1 X6.3304 Y-14.8254
G1 X6.3510 Y-14.8043
G1 X6.4037 Y-14.7461
G1 X6.4166 Y-14.7313
G1 X6.4286 Y-14.7158
G1 X6.4754 Y-14.6527
G1 X6.4867 Y-14.6367
G1 X6.4972 Y-14.6201
G1 X6.5376 Y-14.5528
G1 X6.5472 Y-14.5357
G1 X6.5561 Y-14.5181
G1 X6.5896 Y-14.4472
G1 X6.5976 Y-14.4292
G1 X6.6047 Y-14.4109
G1 X6.6311 Y-14.3370
G1 X6.6373 Y-14.3183
G1 X6.6425 Y-14.2994
G1 X6.6616 Y-14.2233
G1 X6.6659 Y-14.2041
G1 X6.6692 Y-14.1848
G1 X6.6808 Y-14.1071
G1 X6.6832 Y-14.0876
G1 X6.6846 Y-14.0680
G1 X6.6888 Y-13.9798
G1 X6.6885 Y-13.9504
G1 X6.6846 Y-13.8720
G1 X6.6832 Y-13.8524
G1 X6.6808 Y-13.8329
G1 X6.6692 Y-13.7552
G1 X6.6659 Y-13.7359
G1 X6.6616 Y-13.7167
G1 X6.6425 Y-13.6406
G1 X6.6373 Y-13.6217
G1 X6.6311 Y-13.6030
G1 X6.6047 Y-13.5291
G1 X6.5976 Y-13.5108
G1 X6.5896 Y-13.4928
G1 X6.5561 Y-13.4219
G1 X6.5472 Y-13.4043
G1 X6.5376 Y-13.3872
G1 X6.4972 Y-13.3199
G1 X6.4867 Y-13.3033
G1 X6.4754 Y-13.2873
G1 X6.4286 Y-13.2242
G1 X6.4166 Y-13.2087
G1 X6.4037 Y-13.1939
G1 X6.3510 Y-13.1357
G1 X6.3304 Y-13.1146
G1 X6.2577 Y-13.0487
G1 X6.2347 Y-13.0303
G1 X6.1717 Y-12.9835
G1 X6.1556 Y-12.9722
G1 X6.1390 Y-12.9617
G1 X6.0717 Y-12.9214
G1 X6.0459 Y-12.9072
G1 X5.9572 Y-12.8652
G1 X5.9298 Y-12.8543
G1 X5.8466 Y-12.8246
G1 X5.8184 Y-12.8164
G1 X5.7422 Y-12.7974
G1 X5.7230 Y-12.7931
G1 X5.7037 Y-12.7897
G1 X5.6260 Y-12.7782
G1 X5.5968 Y-12.7749
G1 X5.4988 Y-12.7701
G1 X5.4693 Y-12.7705
G1 X5.3909 Y-12.7743
G1 X5.3713 Y-12.7758
G1 X5.3518 Y-12.7782
G1 X5.2956 Y-12.7865
G1 X2.4781 Y-9.9690
G1 X2.4782 Y-7.6181
G1 X2.5141 Y-7.5964
G1 X2.5304 Y-7.5854
G1 X2.6203 Y-7.5188
G1 X2.6428 Y-7.4999
G1 X2.7112 Y-7.4379
G1 X2.7322 Y-7.4174
G1 X2.8009 Y-7.3418
G1 X2.8137 Y-7.3270
G1 X2.8258 Y-7.3115
G1 X2.8807 Y-7.2374
G1 X2.8920 Y-7.2214
G1 X2.9025 Y-7.2048
G1 X2.9499 Y-7.1257
G1 X2.9641 Y-7.0999
G1 X3.0079 Y-7.0077
G1 X3.0158 Y-6.9897
G1 X3.0229 Y-6.9714
G1 X3.0540 Y-6.8846
G1 X3.0601 Y-6.8659
G1 X3.0653 Y-6.8470
G1 X3.0878 Y-6.7575
G1 X3.0921 Y-6.7384
G1 X3.0954 Y-6.7190
G1 X3.1089 Y-6.6278
G1 X3.1113 Y-6.6083
G1 X3.1128 Y-6.5887
G1 X3.1173 Y-6.4966
G1 X3.1178 Y-6.4770
G1 X3.1173 Y-6.4574
G1 X3.1122 Y-6.3555
G1 X3.1089 Y-6.3262
G1 X3.0954 Y-6.2350
G1 X3.0921 Y-6.2156
G1 X3.0878 Y-6.1965
G1 X3.0653 Y-6.1070
G1 X3.0601 Y-6.0881
G1 X3.0540 Y-6.0694
G1 X3.0229 Y-5.9826
G1 X3.0158 Y-5.9643
G1 X3.0079 Y-5.9463
G1 X2.9684 Y-5.8630
G1 X2.9596 Y-5.8454
G1 X2.9499 Y-5.8283
G1 X2.9025 Y-5.7492
G1 X2.8920 Y-5.7326
G1 X2.8807 Y-5.7166
G1 X2.8258 Y-5.6425
G1 X2.8137 Y-5.6270
G1 X2.8009 Y-5.6122
G1 X2.7389 Y-5.5438
G1 X2.7254 Y-5.5296
G1 X2.7112 Y-5.5161
G1 X2.6428 Y-5.4541
G1 X2.6203 Y-5.4352
G1 X2.5304 Y-5.3686
G1 X2.5058 Y-5.3525
G1 X2.4267 Y-5.3051
G1 X2.4009 Y-5.2909
G1 X2.3087 Y-5.2471
G1 X2.2907 Y-5.2392
G1 X2.2724 Y-5.2321
G1 X2.1856 Y-5.2010
G1 X2.1669 Y-5.1949
G1 X2.1480 Y-5.1897
G1 X2.0585 Y-5.1672
G1 X2.0394 Y-5.1629
G1 X2.0200 Y-5.1596
G1 X1.9288 Y-5.1461
G1 X1.9093 Y-5.1437
G1 X1.8897 Y-5.1422
G1 X1.7878 Y-5.1373
G1 X1.7584 Y-5.1377
G1 X1.6663 Y-5.1422
G1 X1.6467 Y-5.1437
G1 X1.6272 Y-5.1461
G1 X1.5360 Y-5.1596
G1 X1.5166 Y-5.1629
G1 X1.4975 Y-5.1672
G1 X1.4080 Y-5.1897
G1 X1.3891 Y-5.1949
G1 X1.3704 Y-5.2010
G1 X1.2836 Y-5.2321
G1 X1.2653 Y-5.2392
G1 X1.2473 Y-5.2471
G1 X1.1551 Y-5.2909
G1 X1.1293 Y-5.3051
G1 X1.0502 Y-5.3525
G1 X1.0256 Y-5.3686
G1 X0.9357 Y-5.4352
G1 X0.9132 Y-5.4541
G1 X0.8448 Y-5.5161
G1 X0.8306 Y-5.5296
G1 X0.8171 Y-5.5438
G1 X0.7551 Y-5.6122
G1 X0.7423 Y-5.6270
G1 X0.7302 Y-5.6425
G1 X0.6753 Y-5.7166
G1 X0.6640 Y-5.7326
G1 X0.6535 Y-5.7492
G1 X0.6061 Y-5.8283
G1 X0.5964 Y-5.8454
G1 X0.5876 Y-5.8630
G1 X0.5481 Y-5.9463
G1 X0.5402 Y-5.9643
G1 X0.5331 Y-5.9826
G1 X0.5020 Y-6.0694
G1 X0.4959 Y-6.0881
G1 X0.4907 Y-6.1070
G1 X0.4682 Y-6.1965
G1 X0.4639 Y-6.2156
G1 X0.4606 Y-6.2350
G1 X0.4457 Y-6.3359
G1 X0.4432 Y-6.3653
G1 X0.4387 Y-6.4574
G1 X0.4382 Y-6.4770
G1 X0.4387 Y-6.4966
G1 X0.4432 Y-6.5887
G1 X0.4447 Y-6.6083
G1 X0.4471 Y-6.6278
G1 X0.4606 Y-6.7190
G1 X0.4639 Y-6.7384
G1 X0.4682 Y-6.7575
G1 X0.4907 Y-6.8470
G1 X0.4959 Y-6.8659
G1 X0.5020 Y-6.8846
G1 X0.5331 Y-6.9714
G1 X0.5402 Y-6.9897
G1 X0.5481 Y-7.0077
G1 X0.5919 Y-7.0999
G1 X0.6061 Y-7.1257
G1 X0.6535 Y-7.2048
G1 X0.6640 Y-7.2214
G1 X0.6753 Y-7.2374
G1 X0.7302 Y-7.3115
G1 X0.7423 Y-7.3270
G1 X0.7551 Y-7.3418
G1 X0.8238 Y-7.4174
G1 X0.8448 Y-7.4379
G1 X0.9132 Y-7.4999
G1 X0.9357 Y-7.5188
G1 X1.0256 Y-7.5854
G1 X1.0419 Y-7.5964
G1 X1.0779 Y-7.6181
G1 X1.0779 Y-10.2590
G1 X1.0783 Y-10.2787
G1 X1.0804 Y-10.3179
G1 X1.0836 Y-10.3472
G1 X1.0879 Y-10.3763
G1 X1.0913 Y-10.3956
G1 X1.0956 Y-10.4148
G1 X1.1053 Y-10.4529
G1 X1.1142 Y-10.4809
G1 X1.1241 Y-10.5087
G1 X1.1311 Y-10.5270
G1 X1.1391 Y-10.5449
G1 X1.1517 Y-10.5716
G1 X1.1653 Y-10.5977
G1 X1.1853 Y-10.6314
G1 X1.1958 Y-10.6480
G1 X1.2072 Y-10.6641
G1 X1.2247 Y-10.6877
G1 X1.2431 Y-10.7107
G1 X1.2761 Y-10.7471
G1 X4.3055 Y-13.7767
G1 X4.2958 Y-13.8426
G1 X4.2939 Y-13.8622
G1 X4.2894 Y-13.9504
G1 X4.2889 Y-13.9700
G1 X4.2894 Y-13.9896
G1 X4.2939 Y-14.0778
G1 X4.2958 Y-14.0974
G1 X4.3055 Y-14.1633
G1 X1.0599 Y-17.4091
G1 X1.0334 Y-17.4381
G1 X1.0206 Y-17.4530
G1 X1.0085 Y-17.4684
G1 X0.9852 Y-17.5001
G1 X0.9743 Y-17.5164
G1 X0.9540 Y-17.5500
G1 X0.9443 Y-17.5671
G1 X0.9355 Y-17.5846
G1 X0.9188 Y-17.6202
G1 X0.9113 Y-17.6383
